;FLAVOR:Marlin
;TIME:1034
;Filament used: 0.0896957m
;Layer height: 0.1
;MINX:92.705
;MINY:92.704
;MINZ:0.3
;MAXX:112.295
;MAXY:112.296
;MAXZ:47.7
;Generated with Cura_SteamEngine 4.3.0
M104 S200
M105
M109 S200
M82 ;absolute extrusion mode
G21 ;metric values
G90 ;absolute positioning
M82 ;set extruder to absolute mode
M107 ;start with the fan off
G28 X0 Y0 ;move X/Y to min endstops
G28 Z0 ;move Z to min endstops
G1 Z15.0 F9000 ;move the platform down 15mm
G92 E0 ;zero the extruded length
G1 F200 E6 ;extrude 6 mm of feed stock
G92 E0 ;zero the extruded length again
G1 F9000
;Put printing message on LCD screen
M117 Printing...
G92 E0
G92 E0
G1 F1500 E-6.5
;LAYER_COUNT:475
;LAYER:0
M107
G0 F3600 X95.405 Y95.741 Z0.3
;TYPE:SKIRT
G1 F1500 E0
G1 F1800 X95.975 Y95.194 E0.01486
G1 X96.343 Y94.894 E0.02379
G1 X96.757 Y94.577 E0.0336
G1 X97.407 Y94.129 E0.04845
G1 X98.1 Y93.75 E0.06331
G1 X98.492 Y93.573 E0.0714
G1 X98.973 Y93.372 E0.0812
G1 X99.716 Y93.105 E0.09606
G1 X100.482 Y92.914 E0.11091
G1 X100.963 Y92.836 E0.12007
G1 X101.48 Y92.768 E0.12988
G1 X102.267 Y92.704 E0.14473
G1 X103.056 Y92.721 E0.15958
G1 X103.503 Y92.766 E0.16803
G1 X104.026 Y92.834 E0.17795
G1 X104.803 Y92.975 E0.1928
G1 X105.561 Y93.195 E0.20765
G1 X106.003 Y93.362 E0.21654
G1 X106.479 Y93.559 E0.22623
G1 X107.192 Y93.897 E0.24107
G1 X107.868 Y94.306 E0.25593
G1 X108.237 Y94.573 E0.2645
G1 X108.655 Y94.893 E0.2744
G1 X109.257 Y95.404 E0.28926
G1 X109.805 Y95.973 E0.30412
G1 X110.104 Y96.34 E0.31302
G1 X110.423 Y96.756 E0.32288
G1 X110.871 Y97.406 E0.33773
G1 X111.251 Y98.098 E0.35258
G1 X111.443 Y98.527 E0.36142
G1 X111.639 Y99.002 E0.37109
G1 X111.903 Y99.746 E0.38594
G1 X112.09 Y100.513 E0.40079
G1 X112.159 Y100.936 E0.40885
G1 X112.229 Y101.456 E0.41872
G1 X112.295 Y102.243 E0.43358
G1 X112.281 Y103.033 E0.44844
G1 X112.234 Y103.503 E0.45733
G1 X112.166 Y104.026 E0.46725
G1 X112.025 Y104.803 E0.4821
G1 X111.805 Y105.561 E0.49695
G1 X111.637 Y106.005 E0.50588
G1 X111.439 Y106.483 E0.51561
G1 X111.1 Y107.196 E0.53046
G1 X110.691 Y107.872 E0.54532
G1 X110.423 Y108.244 E0.55395
G1 X110.104 Y108.66 E0.56381
G1 X109.592 Y109.262 E0.57867
G1 X109.022 Y109.809 E0.59353
G1 X108.654 Y110.109 E0.60247
G1 X108.241 Y110.425 E0.61225
G1 X107.59 Y110.872 E0.6271
G1 X106.898 Y111.252 E0.64195
G1 X106.508 Y111.427 E0.64999
G1 X106.027 Y111.628 E0.6598
G1 X105.284 Y111.895 E0.67465
G1 X104.518 Y112.086 E0.6895
G1 X104.037 Y112.164 E0.69867
G1 X103.52 Y112.232 E0.70848
G1 X102.733 Y112.296 E0.72333
G1 X101.944 Y112.279 E0.73817
G1 X101.497 Y112.234 E0.74662
G1 X100.974 Y112.166 E0.75654
G1 X100.197 Y112.025 E0.7714
G1 X99.439 Y111.805 E0.78625
G1 X98.997 Y111.638 E0.79513
G1 X98.521 Y111.441 E0.80482
G1 X97.808 Y111.103 E0.81967
G1 X97.132 Y110.694 E0.83453
G1 X96.763 Y110.427 E0.8431
G1 X96.345 Y110.107 E0.853
G1 X95.743 Y109.596 E0.86785
G1 X95.195 Y109.027 E0.88271
G1 X94.893 Y108.656 E0.89171
G1 X94.576 Y108.242 E0.90152
G1 X94.128 Y107.592 E0.91637
G1 X93.749 Y106.899 E0.93123
G1 X93.568 Y106.498 E0.9395
G1 X93.369 Y106.02 E0.94924
G1 X93.103 Y105.276 E0.9641
G1 X92.913 Y104.51 E0.97895
G1 X92.838 Y104.052 E0.98768
G1 X92.769 Y103.534 E0.99751
G1 X92.705 Y102.747 E1.01236
G1 X92.72 Y101.957 E1.02723
G1 X92.766 Y101.5 E1.03587
G1 X92.834 Y100.976 E1.0458
G1 X92.975 Y100.199 E1.06066
G1 X93.194 Y99.441 E1.0755
G1 X93.363 Y98.995 E1.08447
G1 X93.561 Y98.517 E1.0942
G1 X93.9 Y97.804 E1.10906
G1 X94.309 Y97.128 E1.12392
G1 X94.576 Y96.758 E1.1325
G1 X94.894 Y96.343 E1.14234
G1 X95.405 Y95.741 E1.15719
G0 F3600 X95.71 Y96.001
G1 F1800 X96.267 Y95.47 E1.17166
G1 X96.586 Y95.212 E1.17938
G1 X97 Y94.895 E1.18919
G1 X97.634 Y94.459 E1.20366
G1 X98.646 Y93.942 E1.22504
G1 X99.127 Y93.741 E1.23485
G1 X99.851 Y93.482 E1.24931
G1 X100.598 Y93.299 E1.26378
G1 X101.015 Y93.232 E1.27172
G1 X101.532 Y93.164 E1.28153
G1 X102.299 Y93.104 E1.296
G1 X103.068 Y93.123 E1.31047
G1 X103.451 Y93.163 E1.31772
G1 X103.974 Y93.231 E1.32764
G1 X104.731 Y93.369 E1.34211
G1 X105.469 Y93.586 E1.35658
G1 X105.85 Y93.731 E1.36425
G1 X106.326 Y93.928 E1.37394
G1 X107.02 Y94.259 E1.3884
G1 X107.677 Y94.66 E1.40288
G1 X107.994 Y94.89 E1.41025
G1 X108.412 Y95.21 E1.42015
G1 X108.998 Y95.709 E1.43463
G1 X109.529 Y96.266 E1.4491
G1 X109.786 Y96.583 E1.45678
G1 X110.105 Y96.999 E1.46664
G1 X110.541 Y97.633 E1.48112
G1 X110.908 Y98.309 E1.49559
G1 X111.074 Y98.679 E1.50321
G1 X111.27 Y99.154 E1.51288
G1 X111.526 Y99.88 E1.52736
G1 X111.763 Y100.99 E1.54871
G1 X111.833 Y101.51 E1.55858
G1 X111.896 Y102.276 E1.57304
G1 X111.879 Y103.045 E1.58751
G1 X111.837 Y103.451 E1.59518
G1 X111.769 Y103.974 E1.6051
G1 X111.631 Y104.731 E1.61958
G1 X111.414 Y105.469 E1.63405
G1 X111.268 Y105.852 E1.64176
G1 X111.07 Y106.33 E1.65149
G1 X110.739 Y107.024 E1.66595
G1 X110.338 Y107.681 E1.68043
G1 X110.105 Y108.001 E1.68788
G1 X109.786 Y108.417 E1.69774
G1 X109.287 Y109.002 E1.7122
G1 X108.73 Y109.532 E1.72667
G1 X108.411 Y109.791 E1.7344
G1 X107.998 Y110.107 E1.74418
G1 X107.363 Y110.542 E1.75866
G1 X106.354 Y111.058 E1.77997
G1 X105.873 Y111.259 E1.78978
G1 X105.149 Y111.518 E1.80424
G1 X104.402 Y111.701 E1.81871
G1 X103.985 Y111.768 E1.82666
G1 X103.468 Y111.836 E1.83647
G1 X102.701 Y111.896 E1.85094
G1 X101.932 Y111.877 E1.86541
G1 X101.549 Y111.837 E1.87265
G1 X101.026 Y111.769 E1.88257
G1 X100.269 Y111.631 E1.89705
G1 X99.531 Y111.414 E1.91152
G1 X99.15 Y111.269 E1.91918
G1 X98.674 Y111.072 E1.92887
G1 X97.98 Y110.741 E1.94334
G1 X97.323 Y110.34 E1.95782
G1 X97.006 Y110.11 E1.96518
G1 X96.588 Y109.79 E1.97509
G1 X96.002 Y109.291 E1.98956
G1 X95.471 Y108.734 E2.00404
G1 X95.211 Y108.413 E2.01181
G1 X94.894 Y107.999 E2.02162
G1 X94.458 Y107.365 E2.03609
G1 X93.937 Y106.344 E2.05765
G1 X93.738 Y105.866 E2.06739
G1 X93.48 Y105.142 E2.08185
G1 X93.298 Y104.394 E2.09633
G1 X93.235 Y103.999 E2.10386
G1 X93.166 Y103.481 E2.11368
G1 X93.104 Y102.714 E2.12816
G1 X93.122 Y101.945 E2.14263
G1 X93.163 Y101.552 E2.15006
G1 X93.231 Y101.028 E2.16
G1 X93.369 Y100.271 E2.17448
G1 X93.585 Y99.533 E2.18894
G1 X93.732 Y99.148 E2.19669
G1 X93.93 Y98.67 E2.20642
G1 X94.261 Y97.976 E2.22089
G1 X94.662 Y97.319 E2.23537
G1 X94.893 Y97.001 E2.24276
G1 X95.211 Y96.586 E2.25259
G1 X95.71 Y96.001 E2.26706
G0 F3600 X96.015 Y96.261
G1 F1800 X96.829 Y95.529 E2.28765
G1 X97.243 Y95.212 E2.29746
G1 X97.861 Y94.79 E2.31154
G1 X98.8 Y94.311 E2.33136
G1 X99.281 Y94.11 E2.34117
G1 X99.986 Y93.859 E2.35525
G1 X101.067 Y93.629 E2.37604
G1 X101.584 Y93.561 E2.38584
G1 X102.33 Y93.503 E2.39992
G1 X103.4 Y93.559 E2.42007
G1 X103.923 Y93.627 E2.43
G1 X104.658 Y93.763 E2.44406
G1 X105.697 Y94.101 E2.46461
G1 X106.173 Y94.298 E2.4743
G1 X106.848 Y94.621 E2.48837
G1 X107.751 Y95.208 E2.50863
G1 X108.169 Y95.528 E2.51854
G1 X108.738 Y96.014 E2.53261
G1 X109.469 Y96.826 E2.55316
G1 X109.788 Y97.242 E2.56303
G1 X110.211 Y97.86 E2.57711
G1 X110.704 Y98.832 E2.59761
G1 X110.9 Y99.307 E2.60728
G1 X111.148 Y100.013 E2.62136
G1 X111.366 Y101.043 E2.64116
G1 X111.436 Y101.563 E2.65103
G1 X111.496 Y102.309 E2.66511
G1 X111.441 Y103.4 E2.68566
G1 X111.373 Y103.923 E2.69558
G1 X111.237 Y104.658 E2.70964
G1 X110.898 Y105.699 E2.73023
G1 X110.7 Y106.177 E2.73996
G1 X110.377 Y106.852 E2.75404
G1 X109.788 Y107.758 E2.77437
G1 X109.469 Y108.174 E2.78423
G1 X108.983 Y108.742 E2.79829
G1 X108.168 Y109.473 E2.81888
G1 X107.755 Y109.789 E2.82866
G1 X107.137 Y110.212 E2.84275
G1 X106.2 Y110.689 E2.86253
G1 X105.719 Y110.89 E2.87234
G1 X105.014 Y111.141 E2.88641
G1 X103.933 Y111.371 E2.9072
G1 X103.416 Y111.439 E2.91701
G1 X102.67 Y111.497 E2.93109
G1 X101.6 Y111.441 E2.95124
G1 X101.077 Y111.373 E2.96116
G1 X100.342 Y111.237 E2.97522
G1 X99.303 Y110.899 E2.99577
G1 X98.827 Y110.702 E3.00546
G1 X98.152 Y110.379 E3.01954
G1 X97.249 Y109.792 E3.0398
G1 X96.831 Y109.472 E3.0497
G1 X96.262 Y108.986 E3.06378
G1 X95.528 Y108.17 E3.08442
G1 X95.211 Y107.756 E3.09423
G1 X94.789 Y107.138 E3.10831
G1 X94.307 Y106.19 E3.12831
G1 X94.108 Y105.712 E3.13805
G1 X93.857 Y105.007 E3.15213
G1 X93.631 Y103.946 E3.17254
G1 X93.562 Y103.428 E3.18237
G1 X93.503 Y102.683 E3.19642
G1 X93.559 Y101.603 E3.21677
G1 X93.627 Y101.079 E3.22671
G1 X93.763 Y100.344 E3.24077
G1 X94.102 Y99.301 E3.2614
G1 X94.3 Y98.823 E3.27113
G1 X94.623 Y98.148 E3.2852
G1 X95.211 Y97.244 E3.30549
G1 X95.529 Y96.829 E3.31532
G1 X96.015 Y96.261 E3.32939
G0 F3600 X96.319 Y96.521
G1 F1800 X97.073 Y95.847 E3.34841
G1 X97.487 Y95.53 E3.35822
G1 X98.087 Y95.121 E3.37188
G1 X98.954 Y94.68 E3.39017
G1 X99.435 Y94.479 E3.39998
G1 X100.12 Y94.237 E3.41365
G1 X101.119 Y94.025 E3.43286
G1 X101.636 Y93.957 E3.44266
G1 X102.361 Y93.902 E3.45634
G1 X103.348 Y93.956 E3.47494
G1 X103.871 Y94.024 E3.48486
G1 X104.585 Y94.157 E3.49852
G1 X105.544 Y94.471 E3.5175
G1 X106.02 Y94.668 E3.52719
G1 X106.675 Y94.982 E3.54085
G1 X107.508 Y95.525 E3.55956
G1 X107.926 Y95.845 E3.56946
G1 X108.478 Y96.318 E3.58313
G1 X109.151 Y97.07 E3.60212
G1 X109.47 Y97.486 E3.61198
G1 X109.88 Y98.086 E3.62565
G1 X110.334 Y98.985 E3.64459
G1 X110.53 Y99.46 E3.65426
G1 X110.77 Y100.145 E3.66791
G1 X110.97 Y101.096 E3.68619
G1 X111.04 Y101.616 E3.69606
G1 X111.097 Y102.341 E3.70974
G1 X111.044 Y103.348 E3.72871
G1 X110.976 Y103.871 E3.73863
G1 X110.843 Y104.585 E3.75229
G1 X110.529 Y105.546 E3.77131
G1 X110.331 Y106.024 E3.78104
G1 X110.016 Y106.679 E3.79471
G1 X109.47 Y107.514 E3.81348
G1 X109.151 Y107.93 E3.82334
G1 X108.678 Y108.481 E3.837
G1 X107.925 Y109.156 E3.85602
G1 X107.512 Y109.472 E3.86581
G1 X106.911 Y109.881 E3.87948
G1 X106.046 Y110.32 E3.89773
G1 X105.565 Y110.521 E3.90753
G1 X104.88 Y110.763 E3.9212
G1 X103.881 Y110.975 E3.94041
G1 X103.364 Y111.043 E3.95022
G1 X102.639 Y111.098 E3.96389
G1 X101.652 Y111.044 E3.98249
G1 X101.129 Y110.976 E3.99241
G1 X100.415 Y110.843 E4.00607
G1 X99.456 Y110.529 E4.02505
G1 X98.98 Y110.332 E4.03474
G1 X98.325 Y110.018 E4.04841
G1 X97.492 Y109.475 E4.06711
G1 X97.074 Y109.155 E4.07701
G1 X96.522 Y108.682 E4.09069
G1 X95.846 Y107.926 E4.10976
G1 X95.529 Y107.512 E4.11957
G1 X95.12 Y106.912 E4.13323
G1 X94.676 Y106.037 E4.15169
G1 X94.477 Y105.559 E4.16143
G1 X94.235 Y104.874 E4.17509
G1 X94.028 Y103.893 E4.19395
G1 X93.959 Y103.375 E4.20378
G1 X93.903 Y102.651 E4.21744
G1 X93.956 Y101.655 E4.2362
G1 X94.024 Y101.131 E4.24614
G1 X94.157 Y100.417 E4.25981
G1 X94.471 Y99.454 E4.27886
G1 X94.669 Y98.976 E4.28859
G1 X94.984 Y98.321 E4.30226
G1 X95.528 Y97.488 E4.32098
G1 X95.846 Y97.073 E4.33081
G1 X96.319 Y96.521 E4.34449
G0 F3600 X96.623 Y96.782
G1 F1800 X97.316 Y96.164 E4.36195
G1 X97.73 Y95.847 E4.37176
G1 X98.312 Y95.452 E4.38499
G1 X99.108 Y95.049 E4.40177
G1 X99.589 Y94.848 E4.41158
G1 X100.253 Y94.614 E4.42482
G1 X101.171 Y94.422 E4.44247
G1 X101.688 Y94.354 E4.45227
G1 X102.391 Y94.302 E4.46553
G1 X103.296 Y94.353 E4.48258
G1 X103.819 Y94.421 E4.49251
G1 X104.511 Y94.551 E4.50575
G1 X105.391 Y94.84 E4.52317
G1 X105.867 Y95.037 E4.53286
G1 X106.501 Y95.343 E4.54611
G1 X107.265 Y95.843 E4.56328
G1 X107.683 Y96.163 E4.57318
G1 X108.217 Y96.622 E4.58643
G1 X108.834 Y97.313 E4.60385
G1 X109.153 Y97.729 E4.61372
G1 X109.549 Y98.311 E4.62696
G1 X109.964 Y99.137 E4.64435
G1 X110.16 Y99.612 E4.65401
G1 X110.391 Y100.277 E4.66725
G1 X110.574 Y101.15 E4.68403
G1 X110.644 Y101.67 E4.6939
G1 X110.698 Y102.372 E4.70715
G1 X110.647 Y103.296 E4.72455
G1 X110.579 Y103.819 E4.73447
G1 X110.449 Y104.511 E4.74772
G1 X110.159 Y105.393 E4.76518
G1 X109.961 Y105.871 E4.77492
G1 X109.655 Y106.505 E4.78816
G1 X109.153 Y107.271 E4.80539
G1 X108.834 Y107.687 E4.81525
G1 X108.375 Y108.22 E4.82848
G1 X107.682 Y108.838 E4.84594
G1 X107.269 Y109.154 E4.85573
G1 X106.686 Y109.549 E4.86897
G1 X105.892 Y109.951 E4.88571
G1 X105.411 Y110.152 E4.89552
G1 X104.747 Y110.386 E4.90876
G1 X103.829 Y110.578 E4.9264
G1 X103.312 Y110.646 E4.93621
G1 X102.609 Y110.698 E4.94947
G1 X101.704 Y110.647 E4.96652
G1 X101.181 Y110.579 E4.97644
G1 X100.489 Y110.449 E4.98969
G1 X99.609 Y110.16 E5.00711
G1 X99.133 Y109.963 E5.0168
G1 X98.499 Y109.657 E5.03004
G1 X97.735 Y109.157 E5.04722
G1 X97.317 Y108.837 E5.05712
G1 X96.783 Y108.378 E5.07037
G1 X96.163 Y107.683 E5.08789
G1 X95.846 Y107.269 E5.0977
G1 X95.451 Y106.687 E5.11093
G1 X95.045 Y105.883 E5.12787
G1 X94.846 Y105.405 E5.13761
G1 X94.613 Y104.741 E5.15085
G1 X94.424 Y103.841 E5.16814
G1 X94.355 Y103.323 E5.17797
G1 X94.302 Y102.621 E5.19122
G1 X94.353 Y101.706 E5.20846
G1 X94.421 Y101.182 E5.21839
G1 X94.551 Y100.49 E5.23164
G1 X94.841 Y99.607 E5.24912
G1 X95.039 Y99.129 E5.25885
G1 X95.345 Y98.495 E5.2721
G1 X95.846 Y97.731 E5.28928
G1 X96.164 Y97.316 E5.29912
G1 X96.623 Y96.782 E5.31236
G0 F3600 X96.926 Y97.044
G1 F1800 X97.559 Y96.482 E5.32829
G1 X97.973 Y96.165 E5.33809
G1 X98.537 Y95.783 E5.35091
G1 X99.263 Y95.418 E5.36619
G1 X99.744 Y95.217 E5.376
G1 X100.386 Y94.992 E5.3888
G1 X101.224 Y94.819 E5.40489
G1 X101.741 Y94.751 E5.4147
G1 X102.42 Y94.702 E5.42751
G1 X103.245 Y94.749 E5.44305
G1 X103.768 Y94.817 E5.45297
G1 X104.437 Y94.945 E5.46578
G1 X105.238 Y95.21 E5.48165
G1 X105.714 Y95.407 E5.49134
G1 X106.327 Y95.704 E5.50416
G1 X107.022 Y96.161 E5.5198
G1 X107.44 Y96.481 E5.5297
G1 X107.955 Y96.926 E5.54251
G1 X108.517 Y97.557 E5.5584
G1 X108.836 Y97.973 E5.56826
G1 X109.217 Y98.536 E5.58105
G1 X109.594 Y99.29 E5.59691
G1 X109.79 Y99.765 E5.60657
G1 X110.013 Y100.408 E5.61938
G1 X110.177 Y101.203 E5.63465
G1 X110.247 Y101.723 E5.64452
G1 X110.298 Y102.402 E5.65732
G1 X110.251 Y103.245 E5.67321
G1 X110.183 Y103.768 E5.68313
G1 X110.055 Y104.437 E5.69594
G1 X109.789 Y105.24 E5.71185
G1 X109.591 Y105.718 E5.72158
G1 X109.294 Y106.33 E5.73438
G1 X108.836 Y107.027 E5.75007
G1 X108.517 Y107.443 E5.75993
G1 X108.071 Y107.958 E5.77274
G1 X107.438 Y108.52 E5.78867
G1 X107.025 Y108.836 E5.79845
G1 X106.461 Y109.218 E5.81126
G1 X105.737 Y109.582 E5.8265
G1 X105.256 Y109.783 E5.83631
G1 X104.614 Y110.008 E5.84911
G1 X103.776 Y110.181 E5.8652
G1 X103.259 Y110.249 E5.87501
G1 X102.58 Y110.298 E5.88782
G1 X101.755 Y110.251 E5.90336
G1 X101.232 Y110.183 E5.91328
G1 X100.563 Y110.055 E5.92609
G1 X99.762 Y109.79 E5.94197
G1 X99.286 Y109.593 E5.95166
G1 X98.673 Y109.296 E5.96447
G1 X97.978 Y108.839 E5.98011
G1 X97.56 Y108.519 E5.99002
G1 X97.045 Y108.074 E6.00282
G1 X96.481 Y107.44 E6.01878
G1 X96.164 Y107.026 E6.02859
G1 X95.782 Y106.462 E6.0414
G1 X95.414 Y105.729 E6.05683
G1 X95.215 Y105.251 E6.06657
G1 X94.991 Y104.608 E6.07938
G1 X94.821 Y103.788 E6.09513
G1 X94.752 Y103.27 E6.10496
G1 X94.702 Y102.591 E6.11777
G1 X94.749 Y101.758 E6.13346
G1 X94.817 Y101.234 E6.1434
G1 X94.944 Y100.565 E6.15621
G1 X95.211 Y99.76 E6.17217
G1 X95.409 Y99.282 E6.1819
G1 X95.706 Y98.67 E6.19469
G1 X96.163 Y97.974 E6.21036
G1 X96.481 Y97.559 E6.22019
G1 X96.926 Y97.044 E6.23299
G0 F3600 X97.229 Y97.306
G1 F1800 X97.802 Y96.8 E6.24737
G1 X98.216 Y96.483 E6.25718
G1 X98.761 Y96.116 E6.26954
G1 X99.417 Y95.788 E6.28334
G1 X99.898 Y95.587 E6.29314
G1 X100.518 Y95.371 E6.30549
G1 X101.276 Y95.215 E6.32005
G1 X101.793 Y95.147 E6.32986
G1 X102.448 Y95.101 E6.34221
G1 X103.193 Y95.146 E6.35625
G1 X103.716 Y95.214 E6.36617
G1 X104.361 Y95.338 E6.37853
G1 X105.085 Y95.579 E6.39288
G1 X105.561 Y95.776 E6.40257
G1 X106.152 Y96.064 E6.41494
G1 X106.779 Y96.478 E6.42907
G1 X107.197 Y96.798 E6.43897
G1 X107.693 Y97.229 E6.45133
G1 X108.199 Y97.8 E6.46568
G1 X108.518 Y98.216 E6.47554
G1 X108.885 Y98.761 E6.4879
G1 X109.225 Y99.442 E6.50222
G1 X109.421 Y99.917 E6.51189
G1 X109.634 Y100.539 E6.52426
G1 X109.781 Y101.257 E6.53804
G1 X109.851 Y101.777 E6.54791
G1 X109.899 Y102.432 E6.56026
G1 X109.854 Y103.193 E6.5746
G1 X109.786 Y103.716 E6.58453
G1 X109.662 Y104.361 E6.59688
G1 X109.42 Y105.087 E6.61128
G1 X109.222 Y105.565 E6.62101
G1 X108.934 Y106.155 E6.63336
G1 X108.518 Y106.784 E6.64754
G1 X108.199 Y107.2 E6.6574
G1 X107.768 Y107.696 E6.66976
G1 X107.195 Y108.203 E6.68416
G1 X106.782 Y108.519 E6.69394
G1 X106.237 Y108.885 E6.70629
G1 X105.583 Y109.212 E6.72004
G1 X105.102 Y109.413 E6.72985
G1 X104.482 Y109.629 E6.7422
G1 X103.724 Y109.785 E6.75676
G1 X103.207 Y109.853 E6.76656
G1 X102.552 Y109.899 E6.77892
G1 X101.807 Y109.854 E6.79295
