;FLAVOR:Marlin
;TIME:487
;Filament used: 0.0482206m
;Layer height: 0.1
;MINX:92.704
;MINY:92.704
;MINZ:0.3
;MAXX:112.296
;MAXY:112.296
;MAXZ:21.3
;Generated with Cura_SteamEngine 4.3.0
M104 S200
M105
M109 S200
M82 ;absolute extrusion mode
G21 ;metric values
G90 ;absolute positioning
M82 ;set extruder to absolute mode
M107 ;start with the fan off
G28 X0 Y0 ;move X/Y to min endstops
G28 Z0 ;move Z to min endstops
G1 Z15.0 F9000 ;move the platform down 15mm
G92 E0 ;zero the extruded length
G1 F200 E6 ;extrude 6 mm of feed stock
G92 E0 ;zero the extruded length again
G1 F9000
;Put printing message on LCD screen
M117 Printing...
G92 E0
G92 E0
G1 F1500 E-6.5
;LAYER_COUNT:211
;LAYER:0
M107
G0 F3600 X95.408 Y95.738 Z0.3
;TYPE:SKIRT
G1 F1500 E0
G1 F1800 X95.978 Y95.191 E0.01486
G1 X96.342 Y94.895 E0.02369
G1 X96.757 Y94.577 E0.03352
G1 X97.407 Y94.129 E0.04837
G1 X98.099 Y93.749 E0.06322
G1 X98.508 Y93.565 E0.07166
G1 X98.987 Y93.366 E0.08141
G1 X99.731 Y93.1 E0.09628
G1 X100.498 Y92.911 E0.11114
G1 X100.954 Y92.837 E0.11983
G1 X101.474 Y92.768 E0.12969
G1 X102.261 Y92.704 E0.14455
G1 X103.051 Y92.719 E0.15941
G1 X103.526 Y92.768 E0.16839
G1 X104.046 Y92.837 E0.17826
G1 X104.823 Y92.98 E0.19312
G1 X105.581 Y93.201 E0.20797
G1 X106.013 Y93.366 E0.21667
G1 X106.492 Y93.565 E0.22643
G1 X107.205 Y93.904 E0.24128
G1 X107.88 Y94.314 E0.25613
G1 X108.243 Y94.577 E0.26457
G1 X108.658 Y94.895 E0.2744
G1 X109.26 Y95.406 E0.28925
G1 X109.807 Y95.976 E0.30411
G1 X110.104 Y96.34 E0.31295
G1 X110.423 Y96.756 E0.32281
G1 X110.871 Y97.406 E0.33766
G1 X111.251 Y98.098 E0.35251
G1 X111.439 Y98.517 E0.36115
G1 X111.637 Y98.995 E0.37088
G1 X111.902 Y99.739 E0.38574
G1 X112.09 Y100.506 E0.40059
G1 X112.163 Y100.954 E0.40913
G1 X112.232 Y101.474 E0.419
G1 X112.296 Y102.261 E0.43385
G1 X112.281 Y103.051 E0.44872
G1 X112.232 Y103.526 E0.4577
G1 X112.163 Y104.046 E0.46757
G1 X112.02 Y104.823 E0.48243
G1 X111.799 Y105.581 E0.49728
G1 X111.637 Y106.005 E0.50582
G1 X111.439 Y106.483 E0.51555
G1 X111.1 Y107.196 E0.5304
G1 X110.691 Y107.872 E0.54526
G1 X110.423 Y108.244 E0.55389
G1 X110.104 Y108.66 E0.56375
G1 X109.592 Y109.262 E0.57861
G1 X109.022 Y109.809 E0.59347
G1 X108.658 Y110.105 E0.6023
G1 X108.243 Y110.423 E0.61213
G1 X107.593 Y110.871 E0.62698
G1 X106.901 Y111.251 E0.64183
G1 X106.492 Y111.435 E0.65027
G1 X106.013 Y111.634 E0.66003
G1 X105.269 Y111.9 E0.67489
G1 X104.502 Y112.089 E0.68975
G1 X104.046 Y112.163 E0.69844
G1 X103.526 Y112.232 E0.70831
G1 X102.739 Y112.296 E0.72316
G1 X101.949 Y112.281 E0.73802
G1 X101.474 Y112.232 E0.747
G1 X100.954 Y112.163 E0.75687
G1 X100.177 Y112.02 E0.77173
G1 X99.419 Y111.799 E0.78658
G1 X98.987 Y111.634 E0.79528
G1 X98.508 Y111.435 E0.80504
G1 X97.795 Y111.096 E0.81989
G1 X97.12 Y110.686 E0.83475
G1 X96.757 Y110.423 E0.84318
G1 X96.342 Y110.105 E0.85301
G1 X95.74 Y109.594 E0.86787
G1 X95.193 Y109.024 E0.88273
G1 X94.896 Y108.66 E0.89156
G1 X94.577 Y108.244 E0.90142
G1 X94.129 Y107.594 E0.91627
G1 X93.749 Y106.902 E0.93113
G1 X93.561 Y106.483 E0.93976
G1 X93.363 Y106.005 E0.9495
G1 X93.098 Y105.261 E0.96435
G1 X92.91 Y104.494 E0.97921
G1 X92.837 Y104.046 E0.98775
G1 X92.768 Y103.526 E0.99761
G1 X92.704 Y102.739 E1.01247
G1 X92.719 Y101.949 E1.02733
G1 X92.768 Y101.474 E1.03631
G1 X92.837 Y100.954 E1.04618
G1 X92.98 Y100.177 E1.06104
G1 X93.201 Y99.419 E1.07589
G1 X93.363 Y98.995 E1.08443
G1 X93.561 Y98.517 E1.09416
G1 X93.9 Y97.804 E1.10901
G1 X94.309 Y97.128 E1.12387
G1 X94.577 Y96.756 E1.1325
G1 X94.896 Y96.34 E1.14236
G1 X95.408 Y95.738 E1.15723
G0 F3600 X95.713 Y95.998
G1 F1800 X96.27 Y95.468 E1.17169
G1 X96.585 Y95.212 E1.17932
G1 X97 Y94.894 E1.18916
G1 X97.634 Y94.459 E1.20362
G1 X98.31 Y94.091 E1.2181
G1 X98.662 Y93.934 E1.22535
G1 X99.141 Y93.735 E1.23511
G1 X99.866 Y93.478 E1.24958
G1 X100.613 Y93.296 E1.26404
G1 X101.007 Y93.233 E1.27154
G1 X101.527 Y93.164 E1.28141
G1 X102.293 Y93.103 E1.29587
G1 X103.062 Y93.121 E1.31033
G1 X103.473 Y93.164 E1.31811
G1 X103.993 Y93.233 E1.32798
G1 X104.75 Y93.374 E1.34246
G1 X105.487 Y93.592 E1.35692
G1 X105.859 Y93.735 E1.36441
G1 X106.338 Y93.934 E1.37417
G1 X107.032 Y94.266 E1.38864
G1 X107.688 Y94.668 E1.40311
G1 X108 Y94.894 E1.41036
G1 X108.415 Y95.212 E1.4202
G1 X109 Y95.711 E1.43466
G1 X109.531 Y96.268 E1.44914
G1 X109.786 Y96.583 E1.45676
G1 X110.105 Y96.999 E1.46662
G1 X110.541 Y97.633 E1.48109
G1 X110.908 Y98.309 E1.49556
G1 X111.07 Y98.67 E1.50301
G1 X111.268 Y99.148 E1.51274
G1 X111.525 Y99.873 E1.52721
G1 X111.705 Y100.621 E1.54168
G1 X111.767 Y101.007 E1.54903
G1 X111.836 Y101.527 E1.5589
G1 X111.897 Y102.293 E1.57335
G1 X111.879 Y103.062 E1.58782
G1 X111.836 Y103.473 E1.5956
G1 X111.767 Y103.993 E1.60546
G1 X111.626 Y104.75 E1.61995
G1 X111.408 Y105.487 E1.63441
G1 X111.268 Y105.852 E1.64176
G1 X111.07 Y106.33 E1.65149
G1 X110.739 Y107.024 E1.66596
G1 X110.338 Y107.681 E1.68043
G1 X110.105 Y108.001 E1.68788
G1 X109.786 Y108.417 E1.69774
G1 X109.287 Y109.002 E1.7122
G1 X108.73 Y109.532 E1.72667
G1 X108.415 Y109.788 E1.7343
G1 X108 Y110.106 E1.74414
G1 X107.366 Y110.541 E1.7586
G1 X106.69 Y110.909 E1.77308
G1 X106.338 Y111.066 E1.78033
G1 X105.859 Y111.265 E1.79009
G1 X105.134 Y111.522 E1.80455
G1 X104.387 Y111.704 E1.81902
G1 X103.993 Y111.767 E1.82652
G1 X103.473 Y111.836 E1.83639
G1 X102.707 Y111.897 E1.85084
G1 X101.938 Y111.879 E1.86531
G1 X101.527 Y111.836 E1.87309
G1 X101.007 Y111.767 E1.88295
G1 X100.25 Y111.626 E1.89744
G1 X99.513 Y111.408 E1.9119
G1 X99.141 Y111.265 E1.91939
G1 X98.662 Y111.066 E1.92915
G1 X97.968 Y110.734 E1.94362
G1 X97.312 Y110.332 E1.95809
G1 X97 Y110.106 E1.96534
G1 X96.585 Y109.788 E1.97517
G1 X96 Y109.289 E1.98964
G1 X95.469 Y108.732 E2.00411
G1 X95.214 Y108.417 E2.01174
G1 X94.895 Y108.001 E2.0216
G1 X94.459 Y107.367 E2.03607
G1 X94.092 Y106.691 E2.05054
G1 X93.93 Y106.33 E2.05798
G1 X93.732 Y105.852 E2.06772
G1 X93.475 Y105.127 E2.08219
G1 X93.295 Y104.379 E2.09666
G1 X93.233 Y103.993 E2.10401
G1 X93.164 Y103.473 E2.11388
G1 X93.103 Y102.707 E2.12833
G1 X93.121 Y101.938 E2.1428
G1 X93.164 Y101.527 E2.15058
G1 X93.233 Y101.007 E2.16044
G1 X93.374 Y100.25 E2.17493
G1 X93.592 Y99.513 E2.18939
G1 X93.732 Y99.148 E2.19674
G1 X93.93 Y98.67 E2.20647
G1 X94.261 Y97.976 E2.22093
G1 X94.662 Y97.319 E2.23541
G1 X94.895 Y96.999 E2.24286
G1 X95.214 Y96.583 E2.25272
G1 X95.713 Y95.998 E2.26718
G0 F3600 X96.017 Y96.258
G1 F1800 X96.828 Y95.53 E2.28768
G1 X97.243 Y95.212 E2.29752
G1 X97.861 Y94.789 E2.31161
G1 X98.815 Y94.304 E2.33174
G1 X99.294 Y94.105 E2.34149
G1 X100 Y93.855 E2.35558
G1 X101.059 Y93.63 E2.37595
G1 X101.579 Y93.561 E2.38581
G1 X102.325 Y93.502 E2.39989
G1 X103.421 Y93.561 E2.42054
G1 X103.941 Y93.63 E2.4304
G1 X104.676 Y93.768 E2.44447
G1 X105.706 Y94.105 E2.46486
G1 X106.185 Y94.304 E2.47461
G1 X106.859 Y94.627 E2.48867
G1 X107.757 Y95.212 E2.50883
G1 X108.172 Y95.53 E2.51867
G1 X108.74 Y96.016 E2.53273
G1 X109.469 Y96.826 E2.55323
G1 X109.788 Y97.242 E2.56309
G1 X110.211 Y97.86 E2.57718
G1 X110.7 Y98.823 E2.59749
G1 X110.898 Y99.301 E2.60722
G1 X111.147 Y100.007 E2.62131
G1 X111.37 Y101.059 E2.64154
G1 X111.439 Y101.579 E2.6514
G1 X111.498 Y102.325 E2.66548
G1 X111.439 Y103.421 E2.68613
G1 X111.37 Y103.941 E2.69599
G1 X111.232 Y104.676 E2.71006
G1 X110.898 Y105.699 E2.7303
G1 X110.7 Y106.177 E2.74004
G1 X110.377 Y106.852 E2.75411
G1 X109.788 Y107.758 E2.77444
G1 X109.469 Y108.174 E2.7843
G1 X108.983 Y108.742 E2.79836
G1 X108.172 Y109.47 E2.81886
G1 X107.757 Y109.788 E2.8287
G1 X107.139 Y110.211 E2.84278
G1 X106.185 Y110.696 E2.86291
G1 X105.706 Y110.895 E2.87267
G1 X105 Y111.145 E2.88676
G1 X103.941 Y111.37 E2.90712
G1 X103.421 Y111.439 E2.91699
G1 X102.675 Y111.498 E2.93107
G1 X101.579 Y111.439 E2.95171
G1 X101.059 Y111.37 E2.96158
G1 X100.324 Y111.232 E2.97565
G1 X99.294 Y110.895 E2.99603
G1 X98.815 Y110.696 E3.00579
G1 X98.141 Y110.373 E3.01985
G1 X97.243 Y109.788 E3.04001
G1 X96.828 Y109.47 E3.04985
G1 X96.26 Y108.984 E3.06391
G1 X95.531 Y108.174 E3.08441
G1 X95.212 Y107.758 E3.09427
G1 X94.789 Y107.14 E3.10835
G1 X94.3 Y106.177 E3.12867
G1 X94.102 Y105.699 E3.1384
G1 X93.853 Y104.993 E3.15248
G1 X93.63 Y103.941 E3.17271
G1 X93.561 Y103.421 E3.18258
G1 X93.502 Y102.675 E3.19666
G1 X93.561 Y101.579 E3.2173
G1 X93.63 Y101.059 E3.22717
G1 X93.768 Y100.324 E3.24124
G1 X94.102 Y99.301 E3.26148
G1 X94.3 Y98.823 E3.27121
G1 X94.623 Y98.148 E3.28529
G1 X95.212 Y97.242 E3.30562
G1 X95.531 Y96.826 E3.31548
G1 X96.017 Y96.258 E3.32954
G0 F3600 X96.322 Y96.519
G1 F1800 X97.072 Y95.847 E3.34848
G1 X97.487 Y95.529 E3.35832
G1 X98.087 Y95.12 E3.37197
G1 X98.969 Y94.673 E3.39057
G1 X99.448 Y94.474 E3.40033
G1 X100.133 Y94.233 E3.41399
G1 X101.112 Y94.026 E3.43281
G1 X101.632 Y93.957 E3.44268
G1 X102.356 Y93.902 E3.45634
G1 X103.368 Y93.957 E3.4754
G1 X103.888 Y94.026 E3.48527
G1 X104.602 Y94.161 E3.49894
G1 X105.552 Y94.474 E3.51775
G1 X106.031 Y94.673 E3.52751
G1 X106.686 Y94.988 E3.54118
G1 X107.513 Y95.529 E3.55977
G1 X107.928 Y95.847 E3.56961
G1 X108.48 Y96.32 E3.58328
G1 X109.151 Y97.07 E3.60221
G1 X109.47 Y97.486 E3.61207
G1 X109.88 Y98.086 E3.62574
G1 X110.331 Y98.976 E3.64451
G1 X110.529 Y99.454 E3.65424
G1 X110.769 Y100.14 E3.66791
G1 X110.974 Y101.112 E3.6866
G1 X111.043 Y101.632 E3.69647
G1 X111.098 Y102.356 E3.71012
G1 X111.043 Y103.368 E3.72919
G1 X110.974 Y103.888 E3.73906
G1 X110.839 Y104.602 E3.75272
G1 X110.529 Y105.546 E3.77141
G1 X110.331 Y106.024 E3.78115
G1 X110.016 Y106.679 E3.79482
G1 X109.47 Y107.514 E3.81359
G1 X109.151 Y107.93 E3.82345
G1 X108.678 Y108.481 E3.83711
G1 X107.928 Y109.153 E3.85605
G1 X107.513 Y109.471 E3.86588
G1 X106.913 Y109.88 E3.87954
G1 X106.031 Y110.327 E3.89814
G1 X105.552 Y110.526 E3.9079
G1 X104.867 Y110.767 E3.92156
G1 X103.888 Y110.974 E3.94038
G1 X103.368 Y111.043 E3.95025
G1 X102.644 Y111.098 E3.96391
G1 X101.632 Y111.043 E3.98297
G1 X101.112 Y110.974 E3.99284
G1 X100.398 Y110.839 E4.00651
G1 X99.448 Y110.526 E4.02532
G1 X98.969 Y110.327 E4.03508
G1 X98.314 Y110.012 E4.04875
G1 X97.487 Y109.471 E4.06734
G1 X97.072 Y109.153 E4.07717
G1 X96.52 Y108.68 E4.09085
G1 X95.849 Y107.93 E4.10978
G1 X95.53 Y107.514 E4.11964
G1 X95.12 Y106.914 E4.13331
G1 X94.669 Y106.024 E4.15208
G1 X94.471 Y105.546 E4.16181
G1 X94.231 Y104.86 E4.17548
G1 X94.026 Y103.888 E4.19417
G1 X93.957 Y103.368 E4.20403
G1 X93.902 Y102.644 E4.21769
G1 X93.957 Y101.632 E4.23676
G1 X94.026 Y101.112 E4.24662
G1 X94.161 Y100.398 E4.26029
G1 X94.471 Y99.454 E4.27898
G1 X94.669 Y98.976 E4.28872
G1 X94.984 Y98.321 E4.30239
G1 X95.53 Y97.486 E4.32115
G1 X95.849 Y97.07 E4.33101
G1 X96.322 Y96.519 E4.34467
G0 F3600 X96.625 Y96.78
G1 F1800 X97.315 Y96.165 E4.36206
G1 X97.73 Y95.847 E4.3719
G1 X98.312 Y95.451 E4.38514
G1 X99.122 Y95.042 E4.40221
G1 X99.601 Y94.843 E4.41196
G1 X100.266 Y94.611 E4.42521
G1 X101.164 Y94.423 E4.44247
G1 X101.684 Y94.354 E4.45234
G1 X102.386 Y94.301 E4.46558
G1 X103.316 Y94.354 E4.4831
G1 X103.836 Y94.423 E4.49297
G1 X104.527 Y94.555 E4.5062
G1 X105.399 Y94.843 E4.52348
G1 X105.878 Y95.042 E4.53323
G1 X106.511 Y95.349 E4.54647
G1 X107.27 Y95.847 E4.56354
G1 X107.685 Y96.165 E4.57338
G1 X108.219 Y96.624 E4.58662
G1 X108.834 Y97.313 E4.604
G1 X109.153 Y97.729 E4.61386
G1 X109.549 Y98.311 E4.6271
G1 X109.961 Y99.129 E4.64433
G1 X110.159 Y99.607 E4.65406
G1 X110.391 Y100.272 E4.66731
G1 X110.577 Y101.164 E4.68445
G1 X110.646 Y101.684 E4.69431
G1 X110.699 Y102.386 E4.70756
G1 X110.646 Y103.316 E4.72508
G1 X110.577 Y103.836 E4.73495
G1 X110.445 Y104.527 E4.74818
G1 X110.159 Y105.393 E4.76533
G1 X109.961 Y105.871 E4.77507
G1 X109.655 Y106.505 E4.78831
G1 X109.153 Y107.271 E4.80554
G1 X108.834 Y107.687 E4.8154
G1 X108.375 Y108.22 E4.82863
G1 X107.685 Y108.835 E4.84602
G1 X107.27 Y109.153 E4.85585
G1 X106.688 Y109.549 E4.86909
G1 X105.878 Y109.958 E4.88616
G1 X105.399 Y110.157 E4.89592
G1 X104.734 Y110.389 E4.90917
G1 X103.836 Y110.577 E4.92642
G1 X103.316 Y110.646 E4.93629
G1 X102.614 Y110.699 E4.94953
G1 X101.684 Y110.646 E4.96706
G1 X101.164 Y110.577 E4.97692
G1 X100.473 Y110.445 E4.99016
G1 X99.601 Y110.157 E5.00743
G1 X99.122 Y109.958 E5.01719
G1 X98.489 Y109.651 E5.03042
G1 X97.73 Y109.153 E5.0475
G1 X97.315 Y108.835 E5.05733
G1 X96.781 Y108.376 E5.07058
G1 X96.166 Y107.687 E5.08795
G1 X95.847 Y107.271 E5.09781
G1 X95.451 Y106.689 E5.11105
G1 X95.039 Y105.871 E5.12828
G1 X94.841 Y105.393 E5.13801
G1 X94.609 Y104.728 E5.15126
G1 X94.423 Y103.836 E5.1684
G1 X94.354 Y103.316 E5.17827
G1 X94.301 Y102.614 E5.19151
G1 X94.354 Y101.684 E5.20903
G1 X94.423 Y101.164 E5.2189
G1 X94.555 Y100.473 E5.23213
G1 X94.841 Y99.607 E5.24929
G1 X95.039 Y99.129 E5.25902
G1 X95.345 Y98.495 E5.27226
G1 X95.847 Y97.729 E5.28949
G1 X96.166 Y97.313 E5.29935
G1 X96.625 Y96.78 E5.31258
G0 F3600 X96.929 Y97.042
G1 F1800 X97.558 Y96.482 E5.32843
G1 X97.973 Y96.164 E5.33826
G1 X98.537 Y95.782 E5.35107
G1 X99.276 Y95.412 E5.36662
G1 X99.755 Y95.213 E5.37638
G1 X100.398 Y94.989 E5.38919
G1 X101.217 Y94.819 E5.40492
G1 X101.737 Y94.75 E5.41479
G1 X102.416 Y94.701 E5.42759
G1 X103.263 Y94.75 E5.44355
G1 X103.783 Y94.819 E5.45342
G1 X104.451 Y94.948 E5.46622
G1 X105.245 Y95.213 E5.48196
G1 X105.724 Y95.412 E5.49172
G1 X106.337 Y95.71 E5.50454
G1 X107.027 Y96.164 E5.52008
G1 X107.442 Y96.482 E5.52991
G1 X107.957 Y96.927 E5.54271
G1 X108.517 Y97.557 E5.55857
G1 X108.836 Y97.973 E5.56843
G1 X109.217 Y98.536 E5.58122
G1 X109.591 Y99.282 E5.59692
G1 X109.789 Y99.76 E5.60665
G1 X110.013 Y100.404 E5.61947
G1 X110.181 Y101.217 E5.63509
G1 X110.25 Y101.737 E5.64496
G1 X110.299 Y102.416 E5.65776
G1 X110.25 Y103.263 E5.67372
G1 X110.181 Y103.783 E5.68359
G1 X110.052 Y104.451 E5.69639
G1 X109.789 Y105.24 E5.71203
G1 X109.591 Y105.718 E5.72176
G1 X109.294 Y106.33 E5.73456
G1 X108.836 Y107.027 E5.75025
G1 X108.517 Y107.443 E5.76011
G1 X108.071 Y107.958 E5.77292
G1 X107.442 Y108.518 E5.78877
G1 X107.027 Y108.836 E5.7986
G1 X106.463 Y109.218 E5.81141
G1 X105.724 Y109.588 E5.82696
G1 X105.245 Y109.787 E5.83672
G1 X104.602 Y110.011 E5.84952
G1 X103.783 Y110.181 E5.86526
G1 X103.263 Y110.25 E5.87513
G1 X102.584 Y110.299 E5.88793
G1 X101.737 Y110.25 E5.90389
G1 X101.217 Y110.181 E5.91376
G1 X100.549 Y110.052 E5.92656
G1 X99.755 Y109.787 E5.9423
G1 X99.276 Y109.588 E5.95206
G1 X98.663 Y109.29 E5.96488
G1 X97.973 Y108.836 E5.98042
G1 X97.558 Y108.518 E5.99025
G1 X97.043 Y108.073 E6.00305
G1 X96.483 Y107.443 E6.01891
G1 X96.164 Y107.027 E6.02877
G1 X95.783 Y106.464 E6.04156
G1 X95.409 Y105.718 E6.05726
G1 X95.211 Y105.24 E6.06699
G1 X94.987 Y104.596 E6.07981
G1 X94.819 Y103.783 E6.09543
G1 X94.75 Y103.263 E6.1053
G1 X94.701 Y102.584 E6.1181
G1 X94.75 Y101.737 E6.13406
G1 X94.819 Y101.217 E6.14393
G1 X94.948 Y100.549 E6.15673
G1 X95.211 Y99.76 E6.17237
G1 X95.409 Y99.282 E6.1821
G1 X95.706 Y98.67 E6.1949
G1 X96.164 Y97.973 E6.21059
G1 X96.483 Y97.557 E6.22045
G1 X96.929 Y97.042 E6.23326
G0 F3600 X97.232 Y97.304
G1 F1800 X97.802 Y96.8 E6.24758
G1 X98.217 Y96.482 E6.25741
G1 X98.761 Y96.115 E6.26975
G1 X99.429 Y95.781 E6.2838
G1 X99.908 Y95.582 E6.29356
G1 X100.529 Y95.368 E6.30592
G1 X101.27 Y95.216 E6.32014
G1 X101.79 Y95.147 E6.33001
G1 X102.445 Y95.1 E6.34236
G1 X103.21 Y95.147 E6.35678
G1 X103.73 Y95.216 E6.36665
G1 X104.375 Y95.342 E6.37901
G1 X105.092 Y95.582 E6.39323
G1 X105.571 Y95.781 E6.40299
G1 X106.161 Y96.07 E6.41535
G1 X106.783 Y96.482 E6.42938
G1 X107.198 Y96.8 E6.43922
G1 X107.695 Y97.23 E6.45158
G1 X108.199 Y97.8 E6.46589
G1 X108.518 Y98.216 E6.47575
G1 X108.885 Y98.761 E6.48811
G1 X109.222 Y99.435 E6.50229
G1 X109.42 Y99.913 E6.51202
G1 X109.634 Y100.535 E6.52439
G1 X109.784 Y101.27 E6.5385
G1 X109.853 Y101.79 E6.54837
G1 X109.9 Y102.445 E6.56072
G1 X109.853 Y103.21 E6.57514
G1 X109.784 Y103.73 E6.58501
G1 X109.658 Y104.375 E6.59737
G1 X109.42 Y105.087 E6.61149
G1 X109.222 Y105.565 E6.62122
G1 X108.934 Y106.155 E6.63357
G1 X108.518 Y106.784 E6.64776
G1 X108.199 Y107.2 E6.65762
G1 X107.768 Y107.696 E6.66998
G1 X107.198 Y108.2 E6.68429
G1 X106.783 Y108.518 E6.69413
G1 X106.239 Y108.885 E6.70647
G1 X105.571 Y109.219 E6.72052
G1 X105.092 Y109.418 E6.73028
G1 X104.471 Y109.632 E6.74263
G1 X103.73 Y109.784 E6.75686
