;FLAVOR:Marlin
;TIME:24614
;Filament used: 5.87597m
;Layer height: 0.1
;MINX:33.752
;MINY:69.7
;MINZ:0.3
;MAXX:177.8
;MAXY:135.3
;MAXZ:36
;Generated with Cura_SteamEngine 4.3.0
M104 S200
M105
M109 S200
M82 ;absolute extrusion mode
G21 ;metric values
G90 ;absolute positioning
M82 ;set extruder to absolute mode
M107 ;start with the fan off
G28 X0 Y0 ;move X/Y to min endstops
G28 Z0 ;move Z to min endstops
G1 Z15.0 F9000 ;move the platform down 15mm
G92 E0 ;zero the extruded length
G1 F200 E6 ;extrude 6 mm of feed stock
G92 E0 ;zero the extruded length again
G1 F9000
;Put printing message on LCD screen
M117 Printing...
G92 E0
G92 E0
G1 F1500 E-6.5
;LAYER_COUNT:358
;LAYER:0
M107
G0 F3600 X38.057 Y70.587 Z0.3
;TYPE:SKIRT
G1 F1500 E0
G1 F1800 X38.775 Y70.257 E0.01486
G1 X39.522 Y70.002 E0.02971
G1 X40.291 Y69.823 E0.04456
G1 X41.075 Y69.723 E0.05943
G1 X41.67 Y69.7 E0.07063
G1 X123.347 Y69.7 E1.60702
G1 X124.136 Y69.74 E1.62188
G1 X124.916 Y69.859 E1.63672
G1 X125.681 Y70.057 E1.65159
G1 X126.421 Y70.331 E1.66643
G1 X127.13 Y70.679 E1.68129
G1 X127.404 Y70.849 E1.68735
G1 X127.783 Y70.621 E1.69567
G1 X128.498 Y70.284 E1.71054
G1 X129.243 Y70.022 E1.7254
G1 X130.01 Y69.836 E1.74024
G1 X130.792 Y69.729 E1.75509
G1 X131.46 Y69.7 E1.76767
G1 X169.883 Y69.7 E2.49043
G1 X170.672 Y69.74 E2.50529
G1 X171.452 Y69.859 E2.52013
G1 X172.217 Y70.057 E2.53499
G1 X172.957 Y70.331 E2.54984
G1 X173.666 Y70.679 E2.56469
G1 X174.337 Y71.097 E2.57956
G1 X174.961 Y71.58 E2.59441
G1 X175.534 Y72.123 E2.60926
G1 X176.049 Y72.722 E2.62411
G1 X176.5 Y73.37 E2.63897
G1 X176.884 Y74.061 E2.65384
G1 X177.196 Y74.786 E2.66868
G1 X177.433 Y75.539 E2.68353
G1 X177.592 Y76.313 E2.6984
G1 X177.683 Y77.482 E2.72045
G1 X177.8 Y127.365 E3.65878
G1 X177.762 Y128.153 E3.67362
G1 X177.644 Y128.934 E3.68848
G1 X177.448 Y129.699 E3.70333
G1 X177.176 Y130.441 E3.7182
G1 X176.83 Y131.15 E3.73304
G1 X176.414 Y131.822 E3.74791
G1 X175.932 Y132.447 E3.76275
G1 X175.515 Y132.898 E3.77431
G1 X175.398 Y133.015 E3.77742
G1 X174.812 Y133.545 E3.79228
G1 X174.176 Y134.012 E3.80712
G1 X173.496 Y134.413 E3.82197
G1 X172.778 Y134.743 E3.83684
G1 X172.031 Y134.998 E3.85169
G1 X171.262 Y135.177 E3.86654
G1 X170.478 Y135.277 E3.88141
G1 X169.883 Y135.3 E3.89261
G1 X131.459 Y135.3 E4.61538
G1 X130.67 Y135.26 E4.63024
G1 X129.89 Y135.141 E4.64509
G1 X129.125 Y134.943 E4.65995
G1 X128.385 Y134.669 E4.67479
G1 X127.676 Y134.321 E4.68965
G1 X127.404 Y134.152 E4.69567
G1 X126.961 Y134.413 E4.70534
G1 X126.243 Y134.743 E4.72021
G1 X125.496 Y134.998 E4.73506
G1 X124.727 Y135.177 E4.74991
G1 X123.943 Y135.277 E4.76478
G1 X123.348 Y135.3 E4.77598
G1 X41.669 Y135.3 E6.3124
G1 X40.88 Y135.26 E6.32726
G1 X40.1 Y135.141 E6.34211
G1 X39.335 Y134.943 E6.35697
G1 X38.595 Y134.669 E6.37181
G1 X37.886 Y134.321 E6.38667
G1 X37.215 Y133.903 E6.40154
G1 X36.591 Y133.42 E6.41638
G1 X36.154 Y133.015 E6.42759
G1 X36.037 Y132.898 E6.4307
G1 X35.507 Y132.312 E6.44557
G1 X35.04 Y131.676 E6.46041
G1 X34.639 Y130.996 E6.47526
G1 X34.309 Y130.278 E6.49012
G1 X34.054 Y129.531 E6.50497
G1 X33.875 Y128.762 E6.51982
G1 X33.775 Y127.978 E6.53469
G1 X33.752 Y127.383 E6.54589
G1 X33.753 Y77.617 E7.48202
G1 X33.793 Y76.828 E7.49688
G1 X33.913 Y76.048 E7.51172
G1 X34.11 Y75.283 E7.52658
G1 X34.384 Y74.543 E7.54143
G1 X34.732 Y73.833 E7.5563
G1 X35.15 Y73.163 E7.57115
G1 X35.633 Y72.539 E7.586
G1 X36.038 Y72.102 E7.5972
G1 X36.155 Y71.985 E7.60032
G1 X36.741 Y71.455 E7.61518
G1 X37.377 Y70.988 E7.63002
G1 X38.057 Y70.587 E7.64487
G0 F3600 X38.296 Y70.914
G1 F1800 X38.998 Y70.599 E7.65934
G1 X39.729 Y70.359 E7.67382
G1 X40.48 Y70.196 E7.68827
G1 X41.245 Y70.112 E7.70275
G1 X41.67 Y70.1 E7.71075
G1 X123.347 Y70.1 E9.24714
G1 X124.115 Y70.14 E9.2616
G1 X124.875 Y70.259 E9.27607
G1 X125.618 Y70.457 E9.29054
G1 X126.337 Y70.731 E9.30501
G1 X127.023 Y71.078 E9.31947
G1 X127.399 Y71.32 E9.32788
G1 X127.497 Y71.25 E9.33015
G1 X128.167 Y70.873 E9.34461
G1 X128.873 Y70.567 E9.35908
G1 X129.607 Y70.336 E9.37356
G1 X130.36 Y70.182 E9.38802
G1 X131.46 Y70.1 E9.40876
G1 X169.883 Y70.1 E10.13152
G1 X170.651 Y70.14 E10.14599
G1 X171.411 Y70.259 E10.16046
G1 X172.154 Y70.457 E10.17492
G1 X172.873 Y70.731 E10.1894
G1 X173.559 Y71.078 E10.20386
G1 X174.206 Y71.494 E10.21833
G1 X174.806 Y71.975 E10.23279
G1 X175.353 Y72.516 E10.24726
G1 X175.841 Y73.111 E10.26174
G1 X176.264 Y73.753 E10.2762
G1 X176.619 Y74.436 E10.29068
G1 X176.9 Y75.151 E10.30513
G1 X177.106 Y75.893 E10.31962
G1 X177.234 Y76.651 E10.33408
G1 X177.283 Y77.483 E10.34975
G1 X177.4 Y127.366 E11.28808
G1 X177.362 Y128.134 E11.30255
G1 X177.244 Y128.894 E11.31702
G1 X177.048 Y129.638 E11.33149
G1 X176.776 Y130.357 E11.34595
G1 X176.431 Y131.044 E11.36041
G1 X176.016 Y131.692 E11.37488
G1 X175.536 Y132.293 E11.38935
G1 X175.233 Y132.616 E11.39768
G1 X175.116 Y132.733 E11.4008
G1 X174.544 Y133.247 E11.41526
G1 X173.922 Y133.7 E11.42973
G1 X173.257 Y134.086 E11.4442
G1 X172.555 Y134.401 E11.45867
G1 X171.824 Y134.641 E11.47314
G1 X171.073 Y134.804 E11.4876
G1 X170.308 Y134.888 E11.50208
G1 X169.883 Y134.9 E11.51007
G1 X131.459 Y134.9 E12.23285
G1 X130.691 Y134.86 E12.24732
G1 X129.931 Y134.741 E12.26179
G1 X129.188 Y134.543 E12.27625
G1 X128.469 Y134.269 E12.29073
G1 X127.783 Y133.922 E12.30519
G1 X127.411 Y133.683 E12.3135
G1 X127.387 Y133.7 E12.31406
G1 X126.722 Y134.086 E12.32852
G1 X126.02 Y134.401 E12.34299
G1 X125.289 Y134.641 E12.35747
G1 X124.538 Y134.804 E12.37192
G1 X123.773 Y134.888 E12.3864
G1 X123.348 Y134.9 E12.3944
G1 X41.669 Y134.9 E13.93082
G1 X40.901 Y134.86 E13.94529
G1 X40.141 Y134.741 E13.95976
G1 X39.398 Y134.543 E13.97422
G1 X38.679 Y134.269 E13.9887
G1 X37.993 Y133.922 E14.00316
G1 X37.346 Y133.506 E14.01763
G1 X36.746 Y133.025 E14.03209
G1 X36.436 Y132.733 E14.0401
G1 X36.319 Y132.616 E14.04322
G1 X35.805 Y132.044 E14.05768
G1 X35.352 Y131.422 E14.07216
G1 X34.966 Y130.757 E14.08662
G1 X34.651 Y130.055 E14.10109
G1 X34.411 Y129.324 E14.11557
G1 X34.248 Y128.573 E14.13002
G1 X34.164 Y127.808 E14.1445
G1 X34.152 Y127.383 E14.1525
G1 X34.153 Y77.617 E15.08862
G1 X34.193 Y76.849 E15.10309
G1 X34.312 Y76.089 E15.11756
G1 X34.51 Y75.346 E15.13202
G1 X34.784 Y74.627 E15.1465
G1 X35.131 Y73.94 E15.16097
G1 X35.547 Y73.294 E15.17543
G1 X36.028 Y72.694 E15.18989
G1 X36.32 Y72.384 E15.1979
G1 X36.437 Y72.267 E15.20102
G1 X37.009 Y71.753 E15.21548
G1 X37.631 Y71.3 E15.22996
G1 X38.296 Y70.914 E15.24442
G0 F3600 X38.533 Y71.242
G1 F1800 X39.219 Y70.943 E15.2585
G1 X39.933 Y70.719 E15.27257
G1 X40.666 Y70.572 E15.28663
G1 X41.67 Y70.5 E15.30557
G1 X123.347 Y70.5 E16.84196
G1 X124.094 Y70.54 E16.85603
G1 X124.832 Y70.659 E16.87009
G1 X125.554 Y70.857 E16.88417
G1 X126.25 Y71.13 E16.89824
G1 X126.913 Y71.477 E16.91231
G1 X127.403 Y71.804 E16.92339
G1 X127.886 Y71.481 E16.93432
G1 X128.549 Y71.134 E16.9484
G1 X129.245 Y70.86 E16.96247
G1 X129.966 Y70.661 E16.97654
G1 X130.705 Y70.541 E16.99062
G1 X131.46 Y70.5 E17.00485
G1 X169.883 Y70.5 E17.7276
G1 X170.63 Y70.54 E17.74168
G1 X171.368 Y70.659 E17.75574
G1 X172.09 Y70.857 E17.76982
G1 X172.786 Y71.13 E17.78388
G1 X173.449 Y71.477 E17.79796
G1 X174.072 Y71.892 E17.81204
G1 X174.646 Y72.371 E17.8261
G1 X175.167 Y72.908 E17.84018
G1 X175.626 Y73.498 E17.85424
G1 X176.021 Y74.134 E17.86832
G1 X176.345 Y74.808 E17.88239
G1 X176.595 Y75.513 E17.89646
G1 X176.769 Y76.241 E17.91054
G1 X176.864 Y76.983 E17.92461
G1 X176.883 Y77.484 E17.93404
G1 X177 Y127.367 E18.87237
G1 X176.962 Y128.114 E18.88644
G1 X176.844 Y128.852 E18.9005
G1 X176.648 Y129.574 E18.91457
G1 X176.376 Y130.271 E18.92865
G1 X176.032 Y130.935 E18.94271
G1 X175.618 Y131.559 E18.9568
G1 X174.95 Y132.333 E18.97603
G1 X174.833 Y132.45 E18.97914
G1 X174.276 Y132.95 E18.99322
G1 X173.67 Y133.387 E19.00728
G1 X173.02 Y133.758 E19.02136
G1 X172.334 Y134.057 E19.03543
G1 X171.62 Y134.281 E19.04951
G1 X170.887 Y134.428 E19.06357
G1 X169.883 Y134.5 E19.08251
G1 X131.459 Y134.5 E19.80528
G1 X130.712 Y134.46 E19.81935
G1 X129.974 Y134.341 E19.83342
G1 X129.252 Y134.143 E19.8475
G1 X128.556 Y133.87 E19.86156
G1 X127.893 Y133.523 E19.87564
G1 X127.401 Y133.195 E19.88676
G1 X127.135 Y133.387 E19.89293
G1 X126.485 Y133.758 E19.90701
G1 X125.799 Y134.057 E19.92109
G1 X125.085 Y134.281 E19.93516
G1 X124.352 Y134.428 E19.94922
G1 X123.348 Y134.5 E19.96816
G1 X41.669 Y134.5 E21.50459
G1 X40.922 Y134.46 E21.51866
G1 X40.184 Y134.341 E21.53272
G1 X39.462 Y134.143 E21.5468
G1 X38.766 Y133.87 E21.56087
G1 X38.103 Y133.523 E21.57494
G1 X37.48 Y133.108 E21.58902
G1 X36.719 Y132.45 E21.60795
G1 X36.602 Y132.333 E21.61106
G1 X36.102 Y131.776 E21.62514
G1 X35.665 Y131.17 E21.63919
G1 X35.294 Y130.52 E21.65327
G1 X34.995 Y129.834 E21.66735
G1 X34.771 Y129.12 E21.68142
G1 X34.624 Y128.387 E21.69549
G1 X34.552 Y127.383 E21.71442
G1 X34.553 Y77.617 E22.65055
G1 X34.593 Y76.87 E22.66462
G1 X34.712 Y76.131 E22.6787
G1 X34.91 Y75.41 E22.69276
G1 X35.184 Y74.714 E22.70683
G1 X35.53 Y74.05 E22.72092
G1 X35.945 Y73.428 E22.73498
G1 X36.603 Y72.667 E22.75391
G1 X36.72 Y72.55 E22.75702
G1 X37.277 Y72.05 E22.7711
G1 X37.883 Y71.613 E22.78515
G1 X38.533 Y71.242 E22.79923
G0 F3600 X38.769 Y71.572
G1 F1800 X39.438 Y71.289 E22.81289
G1 X40.134 Y71.081 E22.82656
G1 X40.849 Y70.951 E22.84023
G1 X41.67 Y70.9 E22.8557
G1 X123.347 Y70.9 E24.39209
G1 X124.072 Y70.94 E24.40575
G1 X124.789 Y71.059 E24.41942
G1 X125.488 Y71.257 E24.43309
G1 X126.161 Y71.53 E24.44675
G1 X126.8 Y71.875 E24.46041
G1 X127.397 Y72.289 E24.47408
G1 X127.41 Y72.301 E24.47441
G1 X127.658 Y72.105 E24.48035
G1 X128.273 Y71.72 E24.494
G1 X128.928 Y71.405 E24.50767
G1 X129.613 Y71.164 E24.52133
G1 X130.32 Y70.999 E24.53499
G1 X131.042 Y70.913 E24.54867
G1 X131.46 Y70.9 E24.55653
G1 X169.883 Y70.9 E25.27929
G1 X170.608 Y70.94 E25.29295
G1 X171.325 Y71.059 E25.30662
G1 X172.024 Y71.257 E25.32029
G1 X172.697 Y71.53 E25.33395
G1 X173.336 Y71.875 E25.34761
G1 X173.933 Y72.289 E25.36128
G1 X174.481 Y72.765 E25.37493
G1 X174.974 Y73.299 E25.3886
G1 X175.404 Y73.884 E25.40226
G1 X175.768 Y74.513 E25.41593
G1 X176.061 Y75.178 E25.4296
G1 X176.279 Y75.871 E25.44326
G1 X176.419 Y76.583 E25.45691
G1 X176.483 Y77.485 E25.47392
G1 X176.6 Y127.368 E26.41225
G1 X176.562 Y128.093 E26.42591
G1 X176.444 Y128.81 E26.43958
G1 X176.248 Y129.509 E26.45323
G1 X175.977 Y130.183 E26.4669
G1 X175.633 Y130.823 E26.48056
G1 X175.221 Y131.421 E26.49422
G1 X174.667 Y132.05 E26.50999
G1 X174.55 Y132.167 E26.5131
G1 X174.009 Y132.651 E26.52676
G1 X173.418 Y133.074 E26.54043
G1 X172.784 Y133.428 E26.55409
G1 X172.115 Y133.711 E26.56775
G1 X171.419 Y133.919 E26.58142
G1 X170.704 Y134.049 E26.59509
G1 X169.883 Y134.1 E26.61056
G1 X131.459 Y134.1 E27.33334
G1 X130.734 Y134.06 E27.347
G1 X130.017 Y133.941 E27.36067
G1 X129.318 Y133.743 E27.37433
G1 X128.645 Y133.47 E27.38799
G1 X128.006 Y133.125 E27.40165
G1 X127.409 Y132.711 E27.41532
G1 X127.4 Y132.704 E27.41553
G1 X126.883 Y133.074 E27.42749
G1 X126.249 Y133.428 E27.44115
G1 X125.58 Y133.711 E27.45482
G1 X124.884 Y133.919 E27.46848
G1 X124.169 Y134.049 E27.48215
G1 X123.348 Y134.1 E27.49762
G1 X41.669 Y134.1 E29.03405
G1 X40.944 Y134.06 E29.04771
G1 X40.227 Y133.941 E29.06138
G1 X39.528 Y133.743 E29.07505
G1 X38.855 Y133.47 E29.08871
G1 X38.216 Y133.125 E29.10237
G1 X37.619 Y132.711 E29.11603
G1 X37.002 Y132.167 E29.13151
G1 X36.885 Y132.05 E29.13462
G1 X36.401 Y131.509 E29.14827
G1 X35.978 Y130.918 E29.16195
G1 X35.624 Y130.284 E29.1756
G1 X35.341 Y129.615 E29.18927
G1 X35.133 Y128.919 E29.20293
G1 X35.003 Y128.204 E29.2166
G1 X34.952 Y127.383 E29.23208
G1 X34.953 Y77.617 E30.1682
G1 X34.993 Y76.892 E30.18186
G1 X35.112 Y76.175 E30.19553
G1 X35.31 Y75.476 E30.2092
G1 X35.583 Y74.803 E30.22286
G1 X35.928 Y74.164 E30.23652
G1 X36.342 Y73.567 E30.25019
G1 X36.886 Y72.95 E30.26566
G1 X37.003 Y72.833 E30.26877
G1 X37.544 Y72.349 E30.28243
G1 X38.135 Y71.926 E30.2961
G1 X38.769 Y71.572 E30.30976
G0 F3600 X39.004 Y71.903
G1 F1800 X39.655 Y71.636 E30.32299
G1 X40.333 Y71.446 E30.33624
G1 X41.028 Y71.333 E30.34948
G1 X41.67 Y71.3 E30.36157
G1 X123.347 Y71.3 E31.89796
G1 X124.05 Y71.34 E31.91121
G1 X124.744 Y71.459 E31.92445
G1 X125.419 Y71.657 E31.93769
G1 X126.068 Y71.929 E31.95092
G1 X126.682 Y72.274 E31.96417
G1 X127.253 Y72.685 E31.9774
G1 X127.402 Y72.819 E31.98117
G1 X127.484 Y72.742 E31.98329
G1 X128.049 Y72.322 E31.99653
G1 X128.658 Y71.969 E32.00977
G1 X129.303 Y71.687 E32.02302
G1 X129.976 Y71.48 E32.03626
G1 X130.668 Y71.351 E32.0495
G1 X131.46 Y71.3 E32.06443
G1 X169.883 Y71.3 E32.78719
G1 X170.586 Y71.34 E32.80043
G1 X171.28 Y71.459 E32.81368
G1 X171.955 Y71.657 E32.82691
G1 X172.604 Y71.929 E32.84015
G1 X173.218 Y72.274 E32.8534
G1 X173.789 Y72.685 E32.86663
G1 X174.31 Y73.159 E32.87988
G1 X174.774 Y73.689 E32.89313
G1 X175.174 Y74.268 E32.90637
G1 X175.506 Y74.889 E32.91961
G1 X175.766 Y75.543 E32.93285
G1 X175.95 Y76.223 E32.9461
G1 X176.056 Y76.919 E32.95935
G1 X176.083 Y77.485 E32.97
G1 X176.2 Y127.368 E33.90833
G1 X176.162 Y128.071 E33.92158
G1 X176.044 Y128.765 E33.93482
G1 X175.848 Y129.442 E33.94808
G1 X175.577 Y130.091 E33.96131
G1 X175.234 Y130.706 E33.97455
G1 X174.824 Y131.278 E33.98779
G1 X174.384 Y131.767 E34.00016
G1 X174.267 Y131.884 E34.00328
G1 X173.742 Y132.353 E34.01652
G1 X173.167 Y132.759 E34.02976
G1 X172.549 Y133.097 E34.04301
G1 X171.898 Y133.364 E34.05625
G1 X171.22 Y133.554 E34.06949
G1 X170.525 Y133.667 E34.08274
G1 X169.883 Y133.7 E34.09483
G1 X131.459 Y133.7 E34.8176
G1 X130.756 Y133.66 E34.83085
G1 X130.062 Y133.541 E34.84409
G1 X129.387 Y133.343 E34.85733
G1 X128.738 Y133.071 E34.87056
G1 X128.124 Y132.726 E34.88381
G1 X127.553 Y132.315 E34.89705
G1 X127.403 Y132.178 E34.90087
G1 X127.207 Y132.353 E34.90581
G1 X126.632 Y132.759 E34.91905
G1 X126.014 Y133.097 E34.9323
G1 X125.363 Y133.364 E34.94554
G1 X124.685 Y133.554 E34.95878
G1 X123.99 Y133.667 E34.97203
G1 X123.348 Y133.7 E34.98412
G1 X41.669 Y133.7 E36.52055
G1 X40.966 Y133.66 E36.53379
G1 X40.272 Y133.541 E36.54704
G1 X39.597 Y133.343 E36.56027
G1 X38.948 Y133.071 E36.5735
G1 X38.334 Y132.726 E36.58675
G1 X37.763 Y132.315 E36.59999
G1 X37.285 Y131.884 E36.61209
G1 X37.168 Y131.767 E36.61521
G1 X36.699 Y131.242 E36.62845
G1 X36.293 Y130.667 E36.64169
G1 X35.955 Y130.049 E36.65494
G1 X35.688 Y129.398 E36.66817
G1 X35.498 Y128.72 E36.68142
G1 X35.385 Y128.025 E36.69466
G1 X35.352 Y127.383 E36.70676
G1 X35.353 Y77.617 E37.64288
G1 X35.393 Y76.914 E37.65613
G1 X35.512 Y76.22 E37.66937
G1 X35.71 Y75.544 E37.68262
G1 X35.982 Y74.895 E37.69586
G1 X36.327 Y74.281 E37.70911
G1 X36.739 Y73.71 E37.72235
G1 X37.169 Y73.233 E37.73443
G1 X37.286 Y73.116 E37.73755
G1 X37.811 Y72.647 E37.75079
G1 X38.386 Y72.241 E37.76403
G1 X39.004 Y71.903 E37.77728
G0 F3600 X39.236 Y72.235
G1 F1800 X39.87 Y71.986 E37.79009
G1 X40.529 Y71.813 E37.80291
G1 X41.203 Y71.719 E37.81571
G1 X41.67 Y71.7 E37.8245
G1 X123.347 Y71.7 E39.36089
G1 X124.027 Y71.74 E39.3737
G1 X124.697 Y71.859 E39.3865
G1 X125.349 Y72.056 E39.39932
G1 X125.973 Y72.328 E39.41212
G1 X126.561 Y72.672 E39.42493
G1 X127.105 Y73.082 E39.43775
G1 X127.404 Y73.358 E39.4454
G1 X127.88 Y72.937 E39.45736
G1 X128.439 Y72.549 E39.47016
G1 X129.04 Y72.229 E39.48296
G1 X129.675 Y71.982 E39.49578
G1 X130.334 Y71.81 E39.50859
G1 X131.008 Y71.718 E39.52139
G1 X131.46 Y71.7 E39.5299
G1 X169.883 Y71.7 E40.25265
G1 X170.563 Y71.74 E40.26547
G1 X171.233 Y71.859 E40.27827
G1 X171.885 Y72.056 E40.29108
G1 X172.509 Y72.328 E40.30388
G1 X173.097 Y72.672 E40.3167
G1 X173.641 Y73.082 E40.32951
G1 X174.132 Y73.553 E40.34231
G1 X174.566 Y74.078 E40.35512
G1 X174.935 Y74.65 E40.36793
G1 X175.234 Y75.262 E40.38074
G1 X175.459 Y75.904 E40.39354
G1 X175.608 Y76.569 E40.40636
G1 X175.683 Y77.486 E40.42366
G1 X175.8 Y127.369 E41.36199
G1 X175.762 Y128.049 E41.3748
G1 X175.644 Y128.72 E41.38762
G1 X175.448 Y129.372 E41.40043
G1 X175.178 Y129.997 E41.41323
G1 X174.836 Y130.586 E41.42605
G1 X174.427 Y131.13 E41.43885
G1 X174.101 Y131.484 E41.4479
G1 X173.984 Y131.601 E41.45101
G1 X173.475 Y132.054 E41.46383
G1 X172.917 Y132.443 E41.47662
G1 X172.317 Y132.765 E41.48943
G1 X171.683 Y133.014 E41.50225
