;FLAVOR:Marlin
;TIME:1202
;Filament used: 0.275794m
;Layer height: 0.1
;MINX:84.704
;MINY:84.71
;MINZ:0.3
;MAXX:120.296
;MAXY:120.29
;MAXZ:10
;Generated with Cura_SteamEngine 4.3.0
M104 S200
M105
M109 S200
M82 ;absolute extrusion mode
G21 ;metric values
G90 ;absolute positioning
M82 ;set extruder to absolute mode
M107 ;start with the fan off
G28 X0 Y0 ;move X/Y to min endstops
G28 Z0 ;move Z to min endstops
G1 Z15.0 F9000 ;move the platform down 15mm
G92 E0 ;zero the extruded length
G1 F200 E6 ;extrude 6 mm of feed stock
G92 E0 ;zero the extruded length again
G1 F9000
;Put printing message on LCD screen
M117 Printing...
G92 E0
G92 E0
G1 F1500 E-6.5
;LAYER_COUNT:98
;LAYER:0
M107
G0 F3600 X89.733 Y90.1 Z0.3
;TYPE:SKIRT
G1 F1500 E0
G1 F1800 X90.302 Y89.551 E0.01487
G1 X90.683 Y89.239 E0.02414
G1 X92.723 Y87.675 E0.07249
G1 X93.373 Y87.227 E0.08734
G1 X94.066 Y86.847 E0.10221
G1 X94.455 Y86.671 E0.11024
G1 X96.859 Y85.664 E0.15927
G1 X97.602 Y85.396 E0.17412
G1 X98.368 Y85.204 E0.18898
G1 X98.821 Y85.129 E0.19761
G1 X101.408 Y84.777 E0.24673
G1 X102.195 Y84.71 E0.26158
G1 X102.985 Y84.724 E0.27645
G1 X103.444 Y84.768 E0.28512
G1 X106.03 Y85.097 E0.33416
G1 X106.808 Y85.237 E0.34903
G1 X107.567 Y85.454 E0.36387
G1 X108 Y85.616 E0.37257
G1 X110.419 Y86.606 E0.42174
G1 X111.134 Y86.942 E0.4366
G1 X111.811 Y87.348 E0.45145
G1 X112.19 Y87.619 E0.46021
G1 X114.264 Y89.198 E0.50924
G1 X114.867 Y89.707 E0.52409
G1 X115.416 Y90.275 E0.53895
G1 X115.71 Y90.633 E0.54766
G1 X117.332 Y92.731 E0.59754
G1 X117.783 Y93.38 E0.61241
G1 X118.166 Y94.07 E0.62726
G1 X118.368 Y94.518 E0.6365
G1 X119.365 Y96.926 E0.68552
G1 X119.629 Y97.67 E0.70037
G1 X119.818 Y98.437 E0.71523
G1 X119.891 Y98.889 E0.72385
G1 X120.233 Y101.479 E0.77299
G1 X120.296 Y102.266 E0.78784
G1 X120.28 Y103.056 E0.8027
G1 X120.233 Y103.521 E0.81149
G1 X119.891 Y106.111 E0.86064
G1 X119.748 Y106.888 E0.8755
G1 X119.527 Y107.646 E0.89035
G1 X119.365 Y108.074 E0.89896
G1 X118.368 Y110.482 E0.94798
G1 X118.029 Y111.195 E0.96283
G1 X117.62 Y111.871 E0.9777
G1 X117.351 Y112.244 E0.98635
G1 X115.786 Y114.285 E1.03473
G1 X115.274 Y114.887 E1.04959
G1 X114.704 Y115.433 E1.06444
G1 X114.366 Y115.711 E1.07267
G1 X112.301 Y117.307 E1.12176
G1 X111.652 Y117.757 E1.13662
G1 X110.962 Y118.14 E1.15147
G1 X110.545 Y118.329 E1.16008
G1 X108.141 Y119.336 E1.20911
G1 X107.398 Y119.604 E1.22396
G1 X106.632 Y119.796 E1.23882
G1 X106.179 Y119.871 E1.24745
G1 X103.592 Y120.223 E1.29657
G1 X102.805 Y120.29 E1.31142
G1 X102.015 Y120.276 E1.32629
G1 X101.556 Y120.232 E1.33496
G1 X98.97 Y119.903 E1.384
G1 X98.192 Y119.763 E1.39887
G1 X97.433 Y119.546 E1.41371
G1 X97 Y119.384 E1.42241
G1 X94.581 Y118.394 E1.47158
G1 X93.866 Y118.058 E1.48644
G1 X93.189 Y117.652 E1.50129
G1 X92.81 Y117.381 E1.51005
G1 X90.736 Y115.802 E1.55908
G1 X90.133 Y115.293 E1.57393
G1 X89.584 Y114.725 E1.58879
G1 X89.29 Y114.367 E1.5975
G1 X87.668 Y112.269 E1.64738
G1 X87.217 Y111.62 E1.66225
G1 X86.834 Y110.93 E1.6771
G1 X86.632 Y110.482 E1.68634
G1 X85.635 Y108.074 E1.73536
G1 X85.371 Y107.33 E1.75021
G1 X85.182 Y106.563 E1.76507
G1 X85.109 Y106.111 E1.77369
G1 X84.767 Y103.521 E1.82283
G1 X84.704 Y102.734 E1.83768
G1 X84.72 Y101.944 E1.85254
G1 X84.767 Y101.482 E1.86128
G1 X85.102 Y98.937 E1.90956
G1 X85.244 Y98.16 E1.92442
G1 X85.465 Y97.402 E1.93927
G1 X85.616 Y97.002 E1.94732
G1 X86.606 Y94.582 E1.9965
G1 X86.941 Y93.867 E2.01135
G1 X87.348 Y93.19 E2.02621
G1 X87.62 Y92.809 E2.03502
G1 X89.224 Y90.703 E2.08481
G1 X89.733 Y90.1 E2.09966
G0 F3600 X90.039 Y90.358
G1 F1800 X90.595 Y89.826 E2.11413
G1 X90.927 Y89.556 E2.12218
G1 X92.967 Y87.992 E2.17054
G1 X93.601 Y87.557 E2.185
G1 X94.61 Y87.04 E2.20632
G1 X97.014 Y86.033 E2.25535
G1 X97.738 Y85.773 E2.26982
G1 X98.485 Y85.589 E2.28429
G1 X98.875 Y85.526 E2.29173
G1 X101.462 Y85.174 E2.34084
G1 X102.229 Y85.11 E2.35531
G1 X102.998 Y85.126 E2.36978
G1 X103.394 Y85.165 E2.37727
G1 X105.98 Y85.494 E2.4263
G1 X106.737 Y85.631 E2.44078
G1 X107.476 Y85.845 E2.45525
G1 X107.849 Y85.986 E2.46275
G1 X110.268 Y86.976 E2.51191
G1 X110.964 Y87.304 E2.52639
G1 X111.622 Y87.703 E2.54086
G1 X111.948 Y87.937 E2.54841
G1 X114.022 Y89.516 E2.59744
G1 X114.609 Y90.013 E2.61191
G1 X115.141 Y90.569 E2.62639
G1 X115.393 Y90.878 E2.63389
G1 X117.015 Y92.976 E2.68377
G1 X117.454 Y93.608 E2.69825
G1 X117.824 Y94.282 E2.71271
G1 X117.998 Y94.671 E2.72072
G1 X118.995 Y97.079 E2.76975
G1 X119.252 Y97.804 E2.78422
G1 X119.432 Y98.552 E2.79869
G1 X119.494 Y98.941 E2.8061
G1 X119.836 Y101.531 E2.85524
G1 X119.897 Y102.298 E2.86972
G1 X119.878 Y103.067 E2.88419
G1 X119.836 Y103.469 E2.89179
G1 X119.494 Y106.059 E2.94093
G1 X119.354 Y106.815 E2.95539
G1 X119.136 Y107.553 E2.96987
G1 X118.995 Y107.921 E2.97728
G1 X117.998 Y110.329 E3.02631
G1 X117.667 Y111.023 E3.04077
G1 X117.266 Y111.68 E3.05525
G1 X117.033 Y112.001 E3.06271
G1 X115.468 Y114.042 E3.11109
G1 X114.969 Y114.627 E3.12555
G1 X114.121 Y115.394 E3.14706
G1 X112.056 Y116.99 E3.19615
G1 X111.424 Y117.428 E3.21062
G1 X110.75 Y117.798 E3.22508
G1 X110.39 Y117.96 E3.23251
G1 X107.986 Y118.967 E3.28153
G1 X107.262 Y119.227 E3.29601
G1 X106.515 Y119.411 E3.31048
G1 X106.125 Y119.474 E3.31791
G1 X103.538 Y119.826 E3.36702
G1 X102.771 Y119.89 E3.3815
G1 X102.002 Y119.874 E3.39597
G1 X101.606 Y119.835 E3.40345
G1 X99.02 Y119.506 E3.45249
G1 X98.263 Y119.369 E3.46696
G1 X97.524 Y119.155 E3.48143
G1 X97.151 Y119.014 E3.48893
G1 X94.732 Y118.024 E3.5381
G1 X94.036 Y117.696 E3.55257
G1 X93.378 Y117.297 E3.56704
G1 X93.052 Y117.063 E3.57459
G1 X90.978 Y115.484 E3.62363
G1 X90.391 Y114.987 E3.63809
G1 X89.859 Y114.431 E3.65257
G1 X89.607 Y114.122 E3.66007
G1 X87.985 Y112.024 E3.70995
G1 X87.546 Y111.392 E3.72443
G1 X87.176 Y110.718 E3.73889
G1 X87.002 Y110.329 E3.74691
G1 X86.005 Y107.921 E3.79593
G1 X85.748 Y107.196 E3.8104
G1 X85.568 Y106.448 E3.82487
G1 X85.506 Y106.059 E3.83228
G1 X85.164 Y103.469 E3.88142
G1 X85.103 Y102.702 E3.8959
G1 X85.122 Y101.933 E3.91037
G1 X85.163 Y101.534 E3.91791
G1 X85.498 Y98.989 E3.9662
G1 X85.638 Y98.233 E3.98066
G1 X85.986 Y97.153 E4.00201
G1 X86.976 Y94.733 E4.05119
G1 X87.304 Y94.037 E4.06566
G1 X87.702 Y93.379 E4.08013
G1 X87.938 Y93.051 E4.08773
G1 X89.542 Y90.945 E4.13752
G1 X90.039 Y90.358 E4.15199
G0 F3600 X90.345 Y90.618
G1 F1800 X91.17 Y89.874 E4.17289
G1 X93.21 Y88.31 E4.22124
G1 X93.827 Y87.887 E4.23531
G1 X94.764 Y87.409 E4.2551
G1 X97.168 Y86.402 E4.30413
G1 X97.873 Y86.15 E4.31821
G1 X98.929 Y85.922 E4.33853
G1 X101.516 Y85.57 E4.38765
G1 X102.262 Y85.509 E4.40172
G1 X103.343 Y85.562 E4.42208
G1 X105.929 Y85.891 E4.47112
G1 X106.665 Y86.025 E4.48519
G1 X107.697 Y86.357 E4.50558
G1 X110.116 Y87.347 E4.55475
G1 X110.793 Y87.666 E4.56883
G1 X111.705 Y88.255 E4.58925
G1 X113.779 Y89.834 E4.63828
G1 X114.349 Y90.319 E4.65236
G1 X115.077 Y91.123 E4.67276
G1 X116.699 Y93.221 E4.72265
G1 X117.124 Y93.836 E4.73671
G1 X117.629 Y94.824 E4.75758
G1 X118.626 Y97.232 E4.8066
G1 X118.874 Y97.938 E4.82068
G1 X119.098 Y98.994 E4.84099
G1 X119.44 Y101.584 E4.89013
G1 X119.498 Y102.329 E4.90419
G1 X119.44 Y103.416 E4.92466
G1 X119.098 Y106.006 E4.9738
G1 X118.96 Y106.742 E4.98789
G1 X118.626 Y107.768 E5.00819
G1 X117.629 Y110.176 E5.05721
G1 X117.306 Y110.851 E5.07129
G1 X116.716 Y111.757 E5.09162
G1 X115.151 Y113.798 E5.14
G1 X114.665 Y114.367 E5.15408
G1 X113.877 Y115.078 E5.17404
G1 X111.812 Y116.674 E5.22314
G1 X111.196 Y117.099 E5.23722
G1 X110.236 Y117.591 E5.25751
G1 X107.832 Y118.598 E5.30653
G1 X107.127 Y118.85 E5.32062
G1 X106.071 Y119.078 E5.34094
G1 X103.484 Y119.43 E5.39005
G1 X102.738 Y119.491 E5.40413
G1 X101.657 Y119.438 E5.42449
G1 X99.071 Y119.109 E5.47352
G1 X98.335 Y118.975 E5.4876
G1 X97.303 Y118.643 E5.50799
G1 X94.884 Y117.653 E5.55716
G1 X94.207 Y117.334 E5.57123
G1 X93.295 Y116.745 E5.59165
G1 X91.221 Y115.166 E5.64069
G1 X90.651 Y114.681 E5.65477
G1 X89.923 Y113.877 E5.67517
G1 X88.301 Y111.779 E5.72505
G1 X87.876 Y111.164 E5.73911
G1 X87.371 Y110.176 E5.75999
G1 X86.374 Y107.768 E5.80901
G1 X86.126 Y107.062 E5.82309
G1 X85.902 Y106.006 E5.84339
G1 X85.56 Y103.416 E5.89253
G1 X85.502 Y102.671 E5.90659
G1 X85.56 Y101.586 E5.92703
G1 X85.895 Y99.041 E5.97531
G1 X86.032 Y98.306 E5.98938
G1 X86.356 Y97.305 E6.00917
G1 X87.346 Y94.885 E6.05835
G1 X87.666 Y94.208 E6.07244
G1 X88.256 Y93.294 E6.0929
G1 X89.86 Y91.188 E6.1427
G1 X90.345 Y90.618 E6.15678
G0 F3600 X90.65 Y90.877
G1 F1800 X91.413 Y90.191 E6.17608
G1 X93.453 Y88.627 E6.22443
G1 X94.053 Y88.218 E6.23809
G1 X94.919 Y87.777 E6.25637
G1 X97.323 Y86.77 E6.3054
G1 X98.007 Y86.527 E6.31905
G1 X98.983 Y86.318 E6.33783
G1 X101.57 Y85.966 E6.38694
G1 X102.294 Y85.908 E6.4006
G1 X103.293 Y85.959 E6.41942
G1 X105.879 Y86.288 E6.46845
G1 X106.593 Y86.419 E6.48211
G1 X107.546 Y86.727 E6.50095
G1 X109.965 Y87.717 E6.55011
G1 X110.621 Y88.028 E6.56377
G1 X111.463 Y88.574 E6.58265
G1 X113.537 Y90.153 E6.63168
G1 X114.09 Y90.624 E6.64534
G1 X114.76 Y91.367 E6.66416
G1 X116.382 Y93.465 E6.71405
G1 X116.794 Y94.063 E6.72771
G1 X117.259 Y94.977 E6.747
G1 X118.256 Y97.385 E6.79602
G1 X118.497 Y98.071 E6.8097
G1 X118.701 Y99.046 E6.82844
G1 X119.043 Y101.636 E6.87758
G1 X119.099 Y102.36 E6.89124
G1 X119.043 Y103.364 E6.91015
G1 X118.701 Y105.954 E6.9593
G1 X118.567 Y106.668 E6.97296
G1 X118.256 Y107.615 E6.99171
G1 X117.259 Y110.023 E7.04074
G1 X116.945 Y110.678 E7.0544
G1 X116.399 Y111.514 E7.07318
G1 X114.834 Y113.555 E7.12156
G1 X114.36 Y114.106 E7.13523
G1 X113.632 Y114.761 E7.15365
G1 X111.567 Y116.357 E7.20275
G1 X110.969 Y116.769 E7.21641
G1 X110.081 Y117.223 E7.23517
G1 X107.677 Y118.23 E7.2842
G1 X106.993 Y118.473 E7.29785
G1 X106.017 Y118.682 E7.31663
G1 X103.43 Y119.034 E7.36574
G1 X102.706 Y119.092 E7.3794
G1 X101.707 Y119.041 E7.39822
G1 X99.121 Y118.712 E7.44725
G1 X98.407 Y118.581 E7.46091
G1 X97.454 Y118.273 E7.47975
G1 X95.035 Y117.283 E7.52891
G1 X94.379 Y116.972 E7.54257
G1 X93.537 Y116.426 E7.56144
G1 X91.463 Y114.847 E7.61048
G1 X90.91 Y114.376 E7.62414
G1 X90.24 Y113.633 E7.64296
G1 X88.618 Y111.535 E7.69284
G1 X88.206 Y110.937 E7.7065
G1 X87.741 Y110.023 E7.72579
G1 X86.744 Y107.615 E7.77482
G1 X86.503 Y106.929 E7.7885
G1 X86.299 Y105.954 E7.80723
G1 X85.957 Y103.364 E7.85638
G1 X85.901 Y102.64 E7.87004
G1 X85.956 Y101.639 E7.88889
G1 X86.291 Y99.094 E7.93718
G1 X86.426 Y98.38 E7.95085
G1 X86.726 Y97.456 E7.96912
G1 X87.716 Y95.036 E8.01831
G1 X88.028 Y94.38 E8.03197
G1 X88.574 Y93.536 E8.05088
G1 X90.178 Y91.43 E8.10067
G1 X90.65 Y90.877 E8.11435
G0 F3600 X90.954 Y91.137
G1 F1800 X91.657 Y90.509 E8.13208
G1 X93.697 Y88.945 E8.18044
G1 X94.279 Y88.549 E8.19368
G1 X95.074 Y88.146 E8.21044
G1 X97.478 Y87.139 E8.25947
G1 X98.141 Y86.905 E8.2727
G1 X99.037 Y86.715 E8.28993
G1 X101.624 Y86.363 E8.33904
G1 X102.326 Y86.307 E8.35228
G1 X103.242 Y86.356 E8.36954
G1 X105.828 Y86.685 E8.41858
G1 X106.521 Y86.813 E8.43183
G1 X107.394 Y87.097 E8.4491
G1 X109.813 Y88.087 E8.49827
G1 X110.449 Y88.39 E8.51152
G1 X111.221 Y88.892 E8.52884
G1 X113.295 Y90.471 E8.57787
G1 X113.83 Y90.929 E8.59112
G1 X114.444 Y91.612 E8.6084
G1 X116.066 Y93.71 E8.65828
G1 X116.464 Y94.29 E8.67151
G1 X116.889 Y95.13 E8.68922
G1 X117.886 Y97.538 E8.73824
G1 X118.118 Y98.203 E8.75149
G1 X118.305 Y99.098 E8.76869
G1 X118.647 Y101.688 E8.81783
G1 X118.699 Y102.39 E8.83108
G1 X118.647 Y103.312 E8.84845
G1 X118.305 Y105.902 E8.89759
G1 X118.173 Y106.593 E8.91082
G1 X117.886 Y107.462 E8.92804
G1 X116.889 Y109.87 E8.97706
G1 X116.584 Y110.504 E8.9903
G1 X116.081 Y111.271 E9.00755
G1 X114.516 Y113.312 E9.05593
G1 X114.057 Y113.845 E9.06916
G1 X113.387 Y114.445 E9.08608
G1 X111.322 Y116.041 E9.13517
G1 X110.742 Y116.439 E9.1484
G1 X109.926 Y116.854 E9.16562
G1 X107.522 Y117.861 E9.21465
G1 X106.859 Y118.095 E9.22788
G1 X105.963 Y118.285 E9.24511
G1 X103.376 Y118.637 E9.29422
G1 X102.674 Y118.693 E9.30746
G1 X101.758 Y118.644 E9.32472
G1 X99.172 Y118.315 E9.37376
G1 X98.479 Y118.187 E9.38701
G1 X97.606 Y117.903 E9.40428
G1 X95.187 Y116.913 E9.45345
G1 X94.551 Y116.61 E9.4667
G1 X93.779 Y116.108 E9.48402
G1 X91.705 Y114.529 E9.53305
G1 X91.17 Y114.071 E9.5463
G1 X90.556 Y113.388 E9.56358
G1 X88.934 Y111.29 E9.61346
G1 X88.536 Y110.71 E9.62669
G1 X88.111 Y109.87 E9.6444
G1 X87.114 Y107.462 E9.69342
G1 X86.882 Y106.797 E9.70667
G1 X86.695 Y105.902 E9.72387
G1 X86.353 Y103.312 E9.77301
G1 X86.301 Y102.61 E9.78626
G1 X86.353 Y101.691 E9.80357
G1 X86.688 Y99.146 E9.85186
G1 X86.819 Y98.454 E9.8651
G1 X87.097 Y97.607 E9.88187
G1 X88.087 Y95.187 E9.93106
G1 X88.39 Y94.552 E9.94429
G1 X88.893 Y93.778 E9.96165
G1 X90.497 Y91.672 E10.01145
G1 X90.954 Y91.137 E10.02469
G0 F3600 X91.259 Y91.398
G1 F1800 X91.9 Y90.826 E10.04085
G1 X93.94 Y89.262 E10.0892
G1 X94.504 Y88.88 E10.10201
G1 X95.228 Y88.515 E10.11727
G1 X97.632 Y87.508 E10.16629
G1 X98.274 Y87.283 E10.17909
G1 X99.091 Y87.111 E10.19479
G1 X101.678 Y86.759 E10.24391
G1 X102.357 Y86.707 E10.25672
G1 X103.192 Y86.752 E10.27245
G1 X105.778 Y87.081 E10.32148
G1 X106.447 Y87.207 E10.33429
G1 X107.243 Y87.467 E10.35004
G1 X109.662 Y88.457 E10.3992
G1 X110.276 Y88.752 E10.41202
G1 X110.978 Y89.21 E10.42779
G1 X113.052 Y90.789 E10.47682
G1 X113.569 Y91.233 E10.48964
G1 X114.128 Y91.856 E10.50538
G1 X115.75 Y93.954 E10.55527
G1 X116.134 Y94.517 E10.56808
G1 X116.52 Y95.283 E10.58422
G1 X117.517 Y97.691 E10.63324
G1 X117.74 Y98.335 E10.64606
G1 X117.908 Y99.151 E10.66174
G1 X118.25 Y101.741 E10.71088
G1 X118.299 Y102.42 E10.72368
G1 X118.25 Y103.259 E10.73949
G1 X117.908 Y105.849 E10.78863
G1 X117.779 Y106.518 E10.80145
G1 X117.517 Y107.309 E10.81712
G1 X116.52 Y109.717 E10.86615
G1 X116.223 Y110.329 E10.87895
G1 X115.764 Y111.027 E10.89466
G1 X114.199 Y113.068 E10.94304
G1 X113.753 Y113.583 E10.95585
G1 X113.143 Y114.128 E10.97124
G1 X111.078 Y115.724 E11.02033
G1 X110.516 Y116.108 E11.03314
G1 X109.772 Y116.485 E11.04883
G1 X107.368 Y117.492 E11.09786
G1 X106.726 Y117.717 E11.11065
G1 X105.909 Y117.889 E11.12636
G1 X103.322 Y118.241 E11.17547
G1 X102.643 Y118.293 E11.18828
G1 X101.808 Y118.248 E11.20401
G1 X99.222 Y117.919 E11.25304
G1 X98.553 Y117.793 E11.26585
G1 X97.757 Y117.533 E11.2816
G1 X95.338 Y116.543 E11.33077
G1 X94.724 Y116.248 E11.34358
G1 X94.022 Y115.79 E11.35935
G1 X91.948 Y114.211 E11.40838
G1 X91.431 Y113.767 E11.4212
G1 X90.872 Y113.144 E11.43694
G1 X89.25 Y111.046 E11.48683
G1 X88.866 Y110.483 E11.49965
G1 X88.48 Y109.717 E11.51578
G1 X87.483 Y107.309 E11.56481
G1 X87.26 Y106.665 E11.57763
G1 X87.092 Y105.849 E11.5933
G1 X86.75 Y103.259 E11.64244
G1 X86.701 Y102.58 E11.65525
G1 X86.75 Y101.743 E11.67102
G1 X87.085 Y99.198 E11.7193
G1 X87.213 Y98.529 E11.73212
G1 X87.467 Y97.759 E11.74737
G1 X88.457 Y95.339 E11.79655
G1 X88.751 Y94.725 E11.80936
G1 X89.211 Y94.021 E11.82517
G1 X90.815 Y91.915 E11.87497
G1 X91.259 Y91.398 E11.88779
G0 F3600 X91.562 Y91.66
G1 F1800 X92.143 Y91.144 E11.90241
G1 X94.183 Y89.58 E11.95076
G1 X94.728 Y89.212 E11.96313
G1 X95.383 Y88.884 E11.97691
G1 X97.787 Y87.877 E12.02594
G1 X98.407 Y87.661 E12.03829
G1 X99.145 Y87.507 E12.05247
G1 X101.732 Y87.155 E12.10158
G1 X102.387 Y87.106 E12.11394
G1 X103.142 Y87.149 E12.12816
G1 X105.728 Y87.478 E12.1772
G1 X106.373 Y87.601 E12.18955
G1 X107.091 Y87.837 E12.20377
G1 X109.51 Y88.827 E12.25293
G1 X110.102 Y89.113 E12.2653
G1 X110.736 Y89.528 E12.27955
G1 X112.81 Y91.107 E12.32859
G1 X113.308 Y91.536 E12.34095
G1 X113.811 Y92.101 E12.35518
G1 X115.433 Y94.199 E12.40506
G1 X115.803 Y94.742 E12.41742
G1 X116.15 Y95.436 E12.43202
G1 X117.147 Y97.844 E12.48104
G1 X117.361 Y98.465 E12.4934
G1 X117.512 Y99.203 E12.50757
G1 X117.854 Y101.793 E12.55671
G1 X117.9 Y102.448 E12.56906
G1 X117.854 Y103.207 E12.58336
G1 X117.512 Y105.797 E12.63251
G1 X117.386 Y106.442 E12.64487
G1 X117.147 Y107.156 E12.65903
G1 X116.15 Y109.564 E12.70806
G1 X115.862 Y110.154 E12.72041
G1 X115.446 Y110.784 E12.73461
G1 X113.881 Y112.825 E12.78299
G1 X113.451 Y113.321 E12.79534
G1 X112.898 Y113.812 E12.80925
G1 X110.833 Y115.408 E12.85834
G1 X110.29 Y115.777 E12.87069
G1 X109.617 Y116.116 E12.88486
G1 X107.213 Y117.123 E12.93389
G1 X106.593 Y117.339 E12.94624
